(G-CODE GENERATED BY FLATCAM - www.flatcam.org 2018)

(Name: Combo_cnc)
(Units: MM)

(Z_cut: -1.5)
(Z_move: 2.0)
(Feedrate: 125.0)
(Feedrate rapids 1000.0)
(Z Toolchange: 0.787402)
(Z End 2.0)
(Steps per circle: 56)
(Postprocessor Geometry: default)
(Postprocessor Excellon: default)
(Spindle Speed: 12000)

(Created on Sunday, 09 December 2018 at 15:43)

m3s1000
G21
G90
G94
G01 F125.00
G00 Z2.0000
M03 S12000
G4 P1
G00 X3.0720 Y7.3650
G01 F125.00
G01 Z-1.5000
G01 F125.00
G01 X3.0701 Y7.3554
G01 X3.0647 Y7.3473
G01 X3.0566 Y7.3419
G01 X3.0470 Y7.3400
G01 X3.0374 Y7.3419
G01 X3.0293 Y7.3473
G01 X3.0239 Y7.3554
G01 X3.0220 Y7.3650
G01 X3.0239 Y7.3746
G01 X3.0293 Y7.3827
G01 X3.0374 Y7.3881
G01 X3.0470 Y7.3900
G01 X3.0566 Y7.3881
G01 X3.0647 Y7.3827
G01 X3.0701 Y7.3746
G01 X3.0720 Y7.3650
G00 Z2.0000
G00 X5.6120 Y7.3650
G01 F125.00
G01 Z-1.5000
G01 F125.00
G01 X5.6101 Y7.3554
G01 X5.6047 Y7.3473
G01 X5.5966 Y7.3419
G01 X5.5870 Y7.3400
G01 X5.5774 Y7.3419
G01 X5.5693 Y7.3473
G01 X5.5639 Y7.3554
G01 X5.5620 Y7.3650
G01 X5.5639 Y7.3746
G01 X5.5693 Y7.3827
G01 X5.5774 Y7.3881
G01 X5.5870 Y7.3900
G01 X5.5966 Y7.3881
G01 X5.6047 Y7.3827
G01 X5.6101 Y7.3746
G01 X5.6120 Y7.3650
G00 Z2.0000
G00 X8.1520 Y7.3650
G01 F125.00
G01 Z-1.5000
G01 F125.00
G01 X8.1501 Y7.3554
G01 X8.1447 Y7.3473
G01 X8.1366 Y7.3419
G01 X8.1270 Y7.3400
G01 X8.1174 Y7.3419
G01 X8.1093 Y7.3473
G01 X8.1039 Y7.3554
G01 X8.1020 Y7.3650
G01 X8.1039 Y7.3746
G01 X8.1093 Y7.3827
G01 X8.1174 Y7.3881
G01 X8.1270 Y7.3900
G01 X8.1366 Y7.3881
G01 X8.1447 Y7.3827
G01 X8.1501 Y7.3746
G01 X8.1520 Y7.3650
G00 Z2.0000
G00 X10.6920 Y7.3650
G01 F125.00
G01 Z-1.5000
G01 F125.00
G01 X10.6901 Y7.3554
G01 X10.6847 Y7.3473
G01 X10.6766 Y7.3419
G01 X10.6670 Y7.3400
G01 X10.6574 Y7.3419
G01 X10.6493 Y7.3473
G01 X10.6439 Y7.3554
G01 X10.6420 Y7.3650
G01 X10.6439 Y7.3746
G01 X10.6493 Y7.3827
G01 X10.6574 Y7.3881
G01 X10.6670 Y7.3900
G01 X10.6766 Y7.3881
G01 X10.6847 Y7.3827
G01 X10.6901 Y7.3746
G01 X10.6920 Y7.3650
G00 Z2.0000
G00 X10.6920 Y14.9850
G01 F125.00
G01 Z-1.5000
G01 F125.00
G01 X10.6901 Y14.9754
G01 X10.6847 Y14.9673
G01 X10.6766 Y14.9619
G01 X10.6670 Y14.9600
G01 X10.6574 Y14.9619
G01 X10.6493 Y14.9673
G01 X10.6439 Y14.9754
G01 X10.6420 Y14.9850
G01 X10.6439 Y14.9946
G01 X10.6493 Y15.0027
G01 X10.6574 Y15.0081
G01 X10.6670 Y15.0100
G01 X10.6766 Y15.0081
G01 X10.6847 Y15.0027
G01 X10.6901 Y14.9946
G01 X10.6920 Y14.9850
G00 Z2.0000
G00 X8.1520 Y14.9850
G01 F125.00
G01 Z-1.5000
G01 F125.00
G01 X8.1501 Y14.9754
G01 X8.1447 Y14.9673
G01 X8.1366 Y14.9619
G01 X8.1270 Y14.9600
G01 X8.1174 Y14.9619
G01 X8.1093 Y14.9673
G01 X8.1039 Y14.9754
G01 X8.1020 Y14.9850
G01 X8.1039 Y14.9946
G01 X8.1093 Y15.0027
G01 X8.1174 Y15.0081
G01 X8.1270 Y15.0100
G01 X8.1366 Y15.0081
G01 X8.1447 Y15.0027
G01 X8.1501 Y14.9946
G01 X8.1520 Y14.9850
G00 Z2.0000
G00 X5.6120 Y14.9850
G01 F125.00
G01 Z-1.5000
G01 F125.00
G01 X5.6101 Y14.9754
G01 X5.6047 Y14.9673
G01 X5.5966 Y14.9619
G01 X5.5870 Y14.9600
G01 X5.5774 Y14.9619
G01 X5.5693 Y14.9673
G01 X5.5639 Y14.9754
G01 X5.5620 Y14.9850
G01 X5.5639 Y14.9946
G01 X5.5693 Y15.0027
G01 X5.5774 Y15.0081
G01 X5.5870 Y15.0100
G01 X5.5966 Y15.0081
G01 X5.6047 Y15.0027
G01 X5.6101 Y14.9946
G01 X5.6120 Y14.9850
G00 Z2.0000
G00 X3.0720 Y14.9850
G01 F125.00
G01 Z-1.5000
G01 F125.00
G01 X3.0701 Y14.9754
G01 X3.0647 Y14.9673
G01 X3.0566 Y14.9619
G01 X3.0470 Y14.9600
G01 X3.0374 Y14.9619
G01 X3.0293 Y14.9673
G01 X3.0239 Y14.9754
G01 X3.0220 Y14.9850
G01 X3.0239 Y14.9946
G01 X3.0293 Y15.0027
G01 X3.0374 Y15.0081
G01 X3.0470 Y15.0100
G01 X3.0566 Y15.0081
G01 X3.0647 Y15.0027
G01 X3.0701 Y14.9946
G01 X3.0720 Y14.9850
G00 Z2.0000
G00 X8.4060 Y21.1780
G01 F125.00
G01 Z-1.5000
G01 F125.00
G01 X8.4041 Y21.1684
G01 X8.3987 Y21.1603
G01 X8.3906 Y21.1549
G01 X8.3810 Y21.1530
G01 X8.3714 Y21.1549
G01 X8.3633 Y21.1603
G01 X8.3579 Y21.1684
G01 X8.3560 Y21.1780
G01 X8.3579 Y21.1876
G01 X8.3633 Y21.1957
G01 X8.3714 Y21.2011
G01 X8.3810 Y21.2030
G01 X8.3906 Y21.2011
G01 X8.3987 Y21.1957
G01 X8.4041 Y21.1876
G01 X8.4060 Y21.1780
G00 Z2.0000
G00 X8.4060 Y23.7180
G01 F125.00
G01 Z-1.5000
G01 F125.00
G01 X8.4041 Y23.7084
G01 X8.3987 Y23.7003
G01 X8.3906 Y23.6949
G01 X8.3810 Y23.6930
G01 X8.3714 Y23.6949
G01 X8.3633 Y23.7003
G01 X8.3579 Y23.7084
G01 X8.3560 Y23.7180
G01 X8.3579 Y23.7276
G01 X8.3633 Y23.7357
G01 X8.3714 Y23.7411
G01 X8.3810 Y23.7430
G01 X8.3906 Y23.7411
G01 X8.3987 Y23.7357
G01 X8.4041 Y23.7276
G01 X8.4060 Y23.7180
G00 Z2.0000
G00 X8.9140 Y27.9390
G01 F125.00
G01 Z-1.5000
G01 F125.00
G01 X8.9121 Y27.9294
G01 X8.9067 Y27.9213
G01 X8.8986 Y27.9159
G01 X8.8890 Y27.9140
G01 X8.8794 Y27.9159
G01 X8.8713 Y27.9213
G01 X8.8659 Y27.9294
G01 X8.8640 Y27.9390
G01 X8.8659 Y27.9486
G01 X8.8713 Y27.9567
G01 X8.8794 Y27.9621
G01 X8.8890 Y27.9640
G01 X8.8986 Y27.9621
G01 X8.9067 Y27.9567
G01 X8.9121 Y27.9486
G01 X8.9140 Y27.9390
G00 Z2.0000
G00 X8.9140 Y35.5590
G01 F125.00
G01 Z-1.5000
G01 F125.00
G01 X8.9121 Y35.5494
G01 X8.9067 Y35.5413
G01 X8.8986 Y35.5359
G01 X8.8890 Y35.5340
G01 X8.8794 Y35.5359
G01 X8.8713 Y35.5413
G01 X8.8659 Y35.5494
G01 X8.8640 Y35.5590
G01 X8.8659 Y35.5686
G01 X8.8713 Y35.5767
G01 X8.8794 Y35.5821
G01 X8.8890 Y35.5840
G01 X8.8986 Y35.5821
G01 X8.9067 Y35.5767
G01 X8.9121 Y35.5686
G01 X8.9140 Y35.5590
G00 Z2.0000
G00 X17.8810 Y35.2800
G01 F125.00
G01 Z-1.5000
G01 F125.00
G01 X17.8791 Y35.2704
G01 X17.8737 Y35.2623
G01 X17.8656 Y35.2569
G01 X17.8560 Y35.2550
G01 X17.8464 Y35.2569
G01 X17.8383 Y35.2623
G01 X17.8329 Y35.2704
G01 X17.8310 Y35.2800
G01 X17.8329 Y35.2896
G01 X17.8383 Y35.2977
G01 X17.8464 Y35.3031
G01 X17.8560 Y35.3050
G01 X17.8656 Y35.3031
G01 X17.8737 Y35.2977
G01 X17.8791 Y35.2896
G01 X17.8810 Y35.2800
G00 Z2.0000
G00 X17.8810 Y32.7400
G01 F125.00
G01 Z-1.5000
G01 F125.00
G01 X17.8791 Y32.7304
G01 X17.8737 Y32.7223
G01 X17.8656 Y32.7169
G01 X17.8560 Y32.7150
G01 X17.8464 Y32.7169
G01 X17.8383 Y32.7223
G01 X17.8329 Y32.7304
G01 X17.8310 Y32.7400
G01 X17.8329 Y32.7496
G01 X17.8383 Y32.7577
G01 X17.8464 Y32.7631
G01 X17.8560 Y32.7650
G01 X17.8656 Y32.7631
G01 X17.8737 Y32.7577
G01 X17.8791 Y32.7496
G01 X17.8810 Y32.7400
G00 Z2.0000
G00 X22.8840 Y32.7650
G01 F125.00
G01 Z-1.5000
G01 F125.00
G01 X22.8821 Y32.7554
G01 X22.8767 Y32.7473
G01 X22.8686 Y32.7419
G01 X22.8590 Y32.7400
G01 X22.8494 Y32.7419
G01 X22.8413 Y32.7473
G01 X22.8359 Y32.7554
G01 X22.8340 Y32.7650
G01 X22.8359 Y32.7746
G01 X22.8413 Y32.7827
G01 X22.8494 Y32.7881
G01 X22.8590 Y32.7900
G01 X22.8686 Y32.7881
G01 X22.8767 Y32.7827
G01 X22.8821 Y32.7746
G01 X22.8840 Y32.7650
G00 Z2.0000
G00 X22.8840 Y35.3050
G01 F125.00
G01 Z-1.5000
G01 F125.00
G01 X22.8821 Y35.2954
G01 X22.8767 Y35.2873
G01 X22.8686 Y35.2819
G01 X22.8590 Y35.2800
G01 X22.8494 Y35.2819
G01 X22.8413 Y35.2873
G01 X22.8359 Y35.2954
G01 X22.8340 Y35.3050
G01 X22.8359 Y35.3146
G01 X22.8413 Y35.3227
G01 X22.8494 Y35.3281
G01 X22.8590 Y35.3300
G01 X22.8686 Y35.3281
G01 X22.8767 Y35.3227
G01 X22.8821 Y35.3146
G01 X22.8840 Y35.3050
G00 Z2.0000
G00 X22.8840 Y37.8450
G01 F125.00
G01 Z-1.5000
G01 F125.00
G01 X22.8821 Y37.8354
G01 X22.8767 Y37.8273
G01 X22.8686 Y37.8219
G01 X22.8590 Y37.8200
G01 X22.8494 Y37.8219
G01 X22.8413 Y37.8273
G01 X22.8359 Y37.8354
G01 X22.8340 Y37.8450
G01 X22.8359 Y37.8546
G01 X22.8413 Y37.8627
G01 X22.8494 Y37.8681
G01 X22.8590 Y37.8700
G01 X22.8686 Y37.8681
G01 X22.8767 Y37.8627
G01 X22.8821 Y37.8546
G01 X22.8840 Y37.8450
G00 Z2.0000
G00 X22.8840 Y30.2250
G01 F125.00
G01 Z-1.5000
G01 F125.00
G01 X22.8821 Y30.2154
G01 X22.8767 Y30.2073
G01 X22.8686 Y30.2019
G01 X22.8590 Y30.2000
G01 X22.8494 Y30.2019
G01 X22.8413 Y30.2073
G01 X22.8359 Y30.2154
G01 X22.8340 Y30.2250
G01 X22.8359 Y30.2346
G01 X22.8413 Y30.2427
G01 X22.8494 Y30.2481
G01 X22.8590 Y30.2500
G01 X22.8686 Y30.2481
G01 X22.8767 Y30.2427
G01 X22.8821 Y30.2346
G01 X22.8840 Y30.2250
G00 Z2.0000
G00 X22.8840 Y27.6850
G01 F125.00
G01 Z-1.5000
G01 F125.00
G01 X22.8821 Y27.6754
G01 X22.8767 Y27.6673
G01 X22.8686 Y27.6619
G01 X22.8590 Y27.6600
G01 X22.8494 Y27.6619
G01 X22.8413 Y27.6673
G01 X22.8359 Y27.6754
G01 X22.8340 Y27.6850
G01 X22.8359 Y27.6946
G01 X22.8413 Y27.7027
G01 X22.8494 Y27.7081
G01 X22.8590 Y27.7100
G01 X22.8686 Y27.7081
G01 X22.8767 Y27.7027
G01 X22.8821 Y27.6946
G01 X22.8840 Y27.6850
G00 Z2.0000
G00 X22.8840 Y25.1450
G01 F125.00
G01 Z-1.5000
G01 F125.00
G01 X22.8821 Y25.1354
G01 X22.8767 Y25.1273
G01 X22.8686 Y25.1219
G01 X22.8590 Y25.1200
G01 X22.8494 Y25.1219
G01 X22.8413 Y25.1273
G01 X22.8359 Y25.1354
G01 X22.8340 Y25.1450
G01 X22.8359 Y25.1546
G01 X22.8413 Y25.1627
G01 X22.8494 Y25.1681
G01 X22.8590 Y25.1700
G01 X22.8686 Y25.1681
G01 X22.8767 Y25.1627
G01 X22.8821 Y25.1546
G01 X22.8840 Y25.1450
G00 Z2.0000
G00 X22.8840 Y22.6050
G01 F125.00
G01 Z-1.5000
G01 F125.00
G01 X22.8821 Y22.5954
G01 X22.8767 Y22.5873
G01 X22.8686 Y22.5819
G01 X22.8590 Y22.5800
G01 X22.8494 Y22.5819
G01 X22.8413 Y22.5873
G01 X22.8359 Y22.5954
G01 X22.8340 Y22.6050
G01 X22.8359 Y22.6146
G01 X22.8413 Y22.6227
G01 X22.8494 Y22.6281
G01 X22.8590 Y22.6300
G01 X22.8686 Y22.6281
G01 X22.8767 Y22.6227
G01 X22.8821 Y22.6146
G01 X22.8840 Y22.6050
G00 Z2.0000
G00 X22.8840 Y20.0650
G01 F125.00
G01 Z-1.5000
G01 F125.00
G01 X22.8821 Y20.0554
G01 X22.8767 Y20.0473
G01 X22.8686 Y20.0419
G01 X22.8590 Y20.0400
G01 X22.8494 Y20.0419
G01 X22.8413 Y20.0473
G01 X22.8359 Y20.0554
G01 X22.8340 Y20.0650
G01 X22.8359 Y20.0746
G01 X22.8413 Y20.0827
G01 X22.8494 Y20.0881
G01 X22.8590 Y20.0900
G01 X22.8686 Y20.0881
G01 X22.8767 Y20.0827
G01 X22.8821 Y20.0746
G01 X22.8840 Y20.0650
G00 Z2.0000
G00 X22.8840 Y17.5250
G01 F125.00
G01 Z-1.5000
G01 F125.00
G01 X22.8821 Y17.5154
G01 X22.8767 Y17.5073
G01 X22.8686 Y17.5019
G01 X22.8590 Y17.5000
G01 X22.8494 Y17.5019
G01 X22.8413 Y17.5073
G01 X22.8359 Y17.5154
G01 X22.8340 Y17.5250
G01 X22.8359 Y17.5346
G01 X22.8413 Y17.5427
G01 X22.8494 Y17.5481
G01 X22.8590 Y17.5500
G01 X22.8686 Y17.5481
G01 X22.8767 Y17.5427
G01 X22.8821 Y17.5346
G01 X22.8840 Y17.5250
G00 Z2.0000
G00 X22.8840 Y14.9850
G01 F125.00
G01 Z-1.5000
G01 F125.00
G01 X22.8821 Y14.9754
G01 X22.8767 Y14.9673
G01 X22.8686 Y14.9619
G01 X22.8590 Y14.9600
G01 X22.8494 Y14.9619
G01 X22.8413 Y14.9673
G01 X22.8359 Y14.9754
G01 X22.8340 Y14.9850
G01 X22.8359 Y14.9946
G01 X22.8413 Y15.0027
G01 X22.8494 Y15.0081
G01 X22.8590 Y15.0100
G01 X22.8686 Y15.0081
G01 X22.8767 Y15.0027
G01 X22.8821 Y14.9946
G01 X22.8840 Y14.9850
G00 Z2.0000
G00 X22.8840 Y12.4450
G01 F125.00
G01 Z-1.5000
G01 F125.00
G01 X22.8821 Y12.4354
G01 X22.8767 Y12.4273
G01 X22.8686 Y12.4219
G01 X22.8590 Y12.4200
G01 X22.8494 Y12.4219
G01 X22.8413 Y12.4273
G01 X22.8359 Y12.4354
G01 X22.8340 Y12.4450
G01 X22.8359 Y12.4546
G01 X22.8413 Y12.4627
G01 X22.8494 Y12.4681
G01 X22.8590 Y12.4700
G01 X22.8686 Y12.4681
G01 X22.8767 Y12.4627
G01 X22.8821 Y12.4546
G01 X22.8840 Y12.4450
G00 Z2.0000
G00 X22.8840 Y9.9050
G01 F125.00
G01 Z-1.5000
G01 F125.00
G01 X22.8821 Y9.8954
G01 X22.8767 Y9.8873
G01 X22.8686 Y9.8819
G01 X22.8590 Y9.8800
G01 X22.8494 Y9.8819
G01 X22.8413 Y9.8873
G01 X22.8359 Y9.8954
G01 X22.8340 Y9.9050
G01 X22.8359 Y9.9146
G01 X22.8413 Y9.9227
G01 X22.8494 Y9.9281
G01 X22.8590 Y9.9300
G01 X22.8686 Y9.9281
G01 X22.8767 Y9.9227
G01 X22.8821 Y9.9146
G01 X22.8840 Y9.9050
G00 Z2.0000
G00 X38.1240 Y9.9050
G01 F125.00
G01 Z-1.5000
G01 F125.00
G01 X38.1221 Y9.8954
G01 X38.1167 Y9.8873
G01 X38.1086 Y9.8819
G01 X38.0990 Y9.8800
G01 X38.0894 Y9.8819
G01 X38.0813 Y9.8873
G01 X38.0759 Y9.8954
G01 X38.0740 Y9.9050
G01 X38.0759 Y9.9146
G01 X38.0813 Y9.9227
G01 X38.0894 Y9.9281
G01 X38.0990 Y9.9300
G01 X38.1086 Y9.9281
G01 X38.1167 Y9.9227
G01 X38.1221 Y9.9146
G01 X38.1240 Y9.9050
G00 Z2.0000
G00 X38.1240 Y12.4450
G01 F125.00
G01 Z-1.5000
G01 F125.00
G01 X38.1221 Y12.4354
G01 X38.1167 Y12.4273
G01 X38.1086 Y12.4219
G01 X38.0990 Y12.4200
G01 X38.0894 Y12.4219
G01 X38.0813 Y12.4273
G01 X38.0759 Y12.4354
G01 X38.0740 Y12.4450
G01 X38.0759 Y12.4546
G01 X38.0813 Y12.4627
G01 X38.0894 Y12.4681
G01 X38.0990 Y12.4700
G01 X38.1086 Y12.4681
G01 X38.1167 Y12.4627
G01 X38.1221 Y12.4546
G01 X38.1240 Y12.4450
G00 Z2.0000
G00 X38.1240 Y14.9850
G01 F125.00
G01 Z-1.5000
G01 F125.00
G01 X38.1221 Y14.9754
G01 X38.1167 Y14.9673
G01 X38.1086 Y14.9619
G01 X38.0990 Y14.9600
G01 X38.0894 Y14.9619
G01 X38.0813 Y14.9673
G01 X38.0759 Y14.9754
G01 X38.0740 Y14.9850
G01 X38.0759 Y14.9946
G01 X38.0813 Y15.0027
G01 X38.0894 Y15.0081
G01 X38.0990 Y15.0100
G01 X38.1086 Y15.0081
G01 X38.1167 Y15.0027
G01 X38.1221 Y14.9946
G01 X38.1240 Y14.9850
G00 Z2.0000
G00 X38.1240 Y17.5250
G01 F125.00
G01 Z-1.5000
G01 F125.00
G01 X38.1221 Y17.5154
G01 X38.1167 Y17.5073
G01 X38.1086 Y17.5019
G01 X38.0990 Y17.5000
G01 X38.0894 Y17.5019
G01 X38.0813 Y17.5073
G01 X38.0759 Y17.5154
G01 X38.0740 Y17.5250
G01 X38.0759 Y17.5346
G01 X38.0813 Y17.5427
G01 X38.0894 Y17.5481
G01 X38.0990 Y17.5500
G01 X38.1086 Y17.5481
G01 X38.1167 Y17.5427
G01 X38.1221 Y17.5346
G01 X38.1240 Y17.5250
G00 Z2.0000
G00 X38.1240 Y20.0650
G01 F125.00
G01 Z-1.5000
G01 F125.00
G01 X38.1221 Y20.0554
G01 X38.1167 Y20.0473
G01 X38.1086 Y20.0419
G01 X38.0990 Y20.0400
G01 X38.0894 Y20.0419
G01 X38.0813 Y20.0473
G01 X38.0759 Y20.0554
G01 X38.0740 Y20.0650
G01 X38.0759 Y20.0746
G01 X38.0813 Y20.0827
G01 X38.0894 Y20.0881
G01 X38.0990 Y20.0900
G01 X38.1086 Y20.0881
G01 X38.1167 Y20.0827
G01 X38.1221 Y20.0746
G01 X38.1240 Y20.0650
G00 Z2.0000
G00 X38.1240 Y22.6050
G01 F125.00
G01 Z-1.5000
G01 F125.00
G01 X38.1221 Y22.5954
G01 X38.1167 Y22.5873
G01 X38.1086 Y22.5819
G01 X38.0990 Y22.5800
G01 X38.0894 Y22.5819
G01 X38.0813 Y22.5873
G01 X38.0759 Y22.5954
G01 X38.0740 Y22.6050
G01 X38.0759 Y22.6146
G01 X38.0813 Y22.6227
G01 X38.0894 Y22.6281
G01 X38.0990 Y22.6300
G01 X38.1086 Y22.6281
G01 X38.1167 Y22.6227
G01 X38.1221 Y22.6146
G01 X38.1240 Y22.6050
G00 Z2.0000
G00 X38.1240 Y25.1450
G01 F125.00
G01 Z-1.5000
G01 F125.00
G01 X38.1221 Y25.1354
G01 X38.1167 Y25.1273
G01 X38.1086 Y25.1219
G01 X38.0990 Y25.1200
G01 X38.0894 Y25.1219
G01 X38.0813 Y25.1273
G01 X38.0759 Y25.1354
G01 X38.0740 Y25.1450
G01 X38.0759 Y25.1546
G01 X38.0813 Y25.1627
G01 X38.0894 Y25.1681
G01 X38.0990 Y25.1700
G01 X38.1086 Y25.1681
G01 X38.1167 Y25.1627
G01 X38.1221 Y25.1546
G01 X38.1240 Y25.1450
G00 Z2.0000
G00 X38.1240 Y27.6850
G01 F125.00
G01 Z-1.5000
G01 F125.00
G01 X38.1221 Y27.6754
G01 X38.1167 Y27.6673
G01 X38.1086 Y27.6619
G01 X38.0990 Y27.6600
G01 X38.0894 Y27.6619
G01 X38.0813 Y27.6673
G01 X38.0759 Y27.6754
G01 X38.0740 Y27.6850
G01 X38.0759 Y27.6946
G01 X38.0813 Y27.7027
G01 X38.0894 Y27.7081
G01 X38.0990 Y27.7100
G01 X38.1086 Y27.7081
G01 X38.1167 Y27.7027
G01 X38.1221 Y27.6946
G01 X38.1240 Y27.6850
G00 Z2.0000
G00 X38.1240 Y30.2250
G01 F125.00
G01 Z-1.5000
G01 F125.00
G01 X38.1221 Y30.2154
G01 X38.1167 Y30.2073
G01 X38.1086 Y30.2019
G01 X38.0990 Y30.2000
G01 X38.0894 Y30.2019
G01 X38.0813 Y30.2073
G01 X38.0759 Y30.2154
G01 X38.0740 Y30.2250
G01 X38.0759 Y30.2346
G01 X38.0813 Y30.2427
G01 X38.0894 Y30.2481
G01 X38.0990 Y30.2500
G01 X38.1086 Y30.2481
G01 X38.1167 Y30.2427
G01 X38.1221 Y30.2346
G01 X38.1240 Y30.2250
G00 Z2.0000
G00 X38.1240 Y32.7650
G01 F125.00
G01 Z-1.5000
G01 F125.00
G01 X38.1221 Y32.7554
G01 X38.1167 Y32.7473
G01 X38.1086 Y32.7419
G01 X38.0990 Y32.7400
G01 X38.0894 Y32.7419
G01 X38.0813 Y32.7473
G01 X38.0759 Y32.7554
G01 X38.0740 Y32.7650
G01 X38.0759 Y32.7746
G01 X38.0813 Y32.7827
G01 X38.0894 Y32.7881
G01 X38.0990 Y32.7900
G01 X38.1086 Y32.7881
G01 X38.1167 Y32.7827
G01 X38.1221 Y32.7746
G01 X38.1240 Y32.7650
G00 Z2.0000
G00 X38.1240 Y35.3050
G01 F125.00
G01 Z-1.5000
G01 F125.00
G01 X38.1221 Y35.2954
G01 X38.1167 Y35.2873
G01 X38.1086 Y35.2819
G01 X38.0990 Y35.2800
G01 X38.0894 Y35.2819
G01 X38.0813 Y35.2873
G01 X38.0759 Y35.2954
G01 X38.0740 Y35.3050
G01 X38.0759 Y35.3146
G01 X38.0813 Y35.3227
G01 X38.0894 Y35.3281
G01 X38.0990 Y35.3300
G01 X38.1086 Y35.3281
G01 X38.1167 Y35.3227
G01 X38.1221 Y35.3146
G01 X38.1240 Y35.3050
G00 Z2.0000
G00 X38.1240 Y37.8450
G01 F125.00
G01 Z-1.5000
G01 F125.00
G01 X38.1221 Y37.8354
G01 X38.1167 Y37.8273
G01 X38.1086 Y37.8219
G01 X38.0990 Y37.8200
G01 X38.0894 Y37.8219
G01 X38.0813 Y37.8273
G01 X38.0759 Y37.8354
G01 X38.0740 Y37.8450
G01 X38.0759 Y37.8546
G01 X38.0813 Y37.8627
G01 X38.0894 Y37.8681
G01 X38.0990 Y37.8700
G01 X38.1086 Y37.8681
G01 X38.1167 Y37.8627
G01 X38.1221 Y37.8546
G01 X38.1240 Y37.8450
G00 Z2.0000
G00 X-0.5270 Y48.5130
G01 F125.00
G01 Z-1.5000
G01 F125.00
G01 X-0.5245 Y48.5647
G01 X-0.5169 Y48.6158
G01 X-0.5043 Y48.6660
G01 X-0.4869 Y48.7147
G01 X-0.4648 Y48.7614
G01 X-0.4382 Y48.8058
G01 X-0.4074 Y48.8473
G01 X-0.3726 Y48.8856
G01 X-0.3343 Y48.9204
G01 X-0.2928 Y48.9512
G01 X-0.2484 Y48.9778
G01 X-0.2017 Y48.9999
G01 X-0.1530 Y49.0173
G01 X-0.1028 Y49.0299
G01 X-0.0517 Y49.0375
G01 X0.0000 Y49.0400
G01 X44.1950 Y49.0400
G01 X44.2467 Y49.0375
G01 X44.2978 Y49.0299
G01 X44.3480 Y49.0173
G01 X44.3967 Y48.9999
G01 X44.4434 Y48.9778
G01 X44.4878 Y48.9512
G01 X44.5293 Y48.9204
G01 X44.5534 Y48.8992
G01 X44.5812 Y48.8714
G01 X44.6024 Y48.8473
G01 X44.6332 Y48.8058
G01 X44.6598 Y48.7614
G01 X44.6819 Y48.7147
G01 X44.6993 Y48.6660
G01 X44.7119 Y48.6158
G01 X44.7195 Y48.5647
G01 X44.7220 Y48.5130
G01 X44.7220 Y0.0000
G01 X44.7195 Y-0.0517
G01 X44.7119 Y-0.1028
G01 X44.6993 Y-0.1530
G01 X44.6819 Y-0.2017
G01 X44.6598 Y-0.2484
G01 X44.6332 Y-0.2928
G01 X44.6024 Y-0.3343
G01 X44.5812 Y-0.3584
G01 X44.5534 Y-0.3862
G01 X44.5293 Y-0.4074
G01 X44.4878 Y-0.4382
G01 X44.4434 Y-0.4648
G01 X44.3967 Y-0.4869
G01 X44.3480 Y-0.5043
G01 X44.2978 Y-0.5169
G01 X44.2467 Y-0.5245
G01 X44.1950 Y-0.5270
G01 X0.0000 Y-0.5270
G01 X-0.0517 Y-0.5245
G01 X-0.1028 Y-0.5169
G01 X-0.1530 Y-0.5043
G01 X-0.2017 Y-0.4869
G01 X-0.2484 Y-0.4648
G01 X-0.2928 Y-0.4382
G01 X-0.3343 Y-0.4074
G01 X-0.3584 Y-0.3862
G01 X-0.3862 Y-0.3584
G01 X-0.4074 Y-0.3343
G01 X-0.4382 Y-0.2928
G01 X-0.4648 Y-0.2484
G01 X-0.4869 Y-0.2017
G01 X-0.5043 Y-0.1530
G01 X-0.5169 Y-0.1028
G01 X-0.5245 Y-0.0517
G01 X-0.5270 Y0.0000
G01 X-0.5270 Y48.5130
G00 Z2.0000
M05
G00 Z2.0000
G00 Z2.00
G00 X0Y0
m30