(G-CODE GENERATED BY FLATCAM - www.flatcam.org 2018)

(Name: Gerber_TopLayer.GTL_iso_cnc)
(Units: MM)

(Z_cut: -0.1)
(Z_move: 2.0)
(Feedrate: 300.0)
(Feedrate rapids 1000.0)
(Z Toolchange: 0.787402)
(Z End 2.0)
(Steps per circle: 56)
(Postprocessor Geometry: default)
(Postprocessor Excellon: default)
(Spindle Speed: 12000)

(Created on Sunday, 09 December 2018 at 15:44)

m3s1000
G21
G90
G94
G01 F300.00
G00 Z2.0000
M03 S12000
G4 P1
G00 X1.8570 Y7.8150
G01 F300.00
G01 Z-0.1000
G01 F300.00
G01 X1.8571 Y6.9054
G01 X1.8627 Y6.7984
G01 X1.8799 Y6.6828
G01 X1.9082 Y6.5696
G01 X1.9407 Y6.4775
G01 X1.9553 Y6.4421
G01 X1.9889 Y6.3711
G01 X2.0070 Y6.3374
G01 X2.0576 Y6.2539
G01 X2.1271 Y6.1601
G01 X2.2055 Y6.0735
G01 X2.2570 Y6.0263
G01 X2.2571 Y4.0534
G01 X2.2594 Y4.0047
G01 X2.2631 Y3.9666
G01 X2.2722 Y3.9089
G01 X2.2859 Y3.8521
G01 X2.2970 Y3.8155
G01 X2.3171 Y3.7607
G01 X2.3503 Y3.6906
G01 X2.3901 Y3.6241
G01 X2.4245 Y3.5769
G01 X2.4488 Y3.5473
G01 X2.4817 Y3.5112
G01 X2.7492 Y3.2437
G01 X2.7998 Y3.1983
G01 X2.8464 Y3.1632
G01 X2.8783 Y3.1419
G01 X2.9286 Y3.1123
G01 X2.9987 Y3.0791
G01 X3.0535 Y3.0590
G01 X3.0901 Y3.0479
G01 X3.1282 Y3.0384
G01 X3.1657 Y3.0309
G01 X3.2236 Y3.0228
G01 X3.3010 Y3.0190
G01 X25.4086 Y3.0191
G01 X25.4764 Y3.0228
G01 X25.5343 Y3.0309
G01 X25.5718 Y3.0384
G01 X25.6283 Y3.0530
G01 X25.7013 Y3.0791
G01 X25.7543 Y3.1037
G01 X25.7881 Y3.1217
G01 X25.8217 Y3.1419
G01 X25.8536 Y3.1632
G01 X25.9002 Y3.1983
G01 X25.9576 Y3.2504
G01 X26.4656 Y3.7584
G01 X26.5177 Y3.8158
G01 X26.5639 Y3.8781
G01 X26.6037 Y3.9446
G01 X26.6369 Y4.0147
G01 X26.6570 Y4.0695
G01 X26.6681 Y4.1061
G01 X26.6776 Y4.1442
G01 X26.6851 Y4.1817
G01 X26.6932 Y4.2396
G01 X26.6970 Y4.3170
G01 X26.6970 Y29.8978
G01 X29.7903 Y32.9912
G01 X29.8232 Y33.0273
G01 X29.8475 Y33.0569
G01 X29.8819 Y33.1041
G01 X29.9123 Y33.1539
G01 X29.9303 Y33.1877
G01 X29.9549 Y33.2407
G01 X29.9810 Y33.3137
G01 X29.9998 Y33.3889
G01 X30.0089 Y33.4466
G01 X30.0126 Y33.4847
G01 X30.0150 Y33.5430
G01 X30.0150 Y42.5910
G01 X30.7250 Y42.5910
G01 X30.7441 Y42.5915
G01 X30.7881 Y42.5961
G01 X30.8312 Y42.6057
G01 X30.8729 Y42.6201
G01 X30.9127 Y42.6392
G01 X30.9502 Y42.6626
G01 X30.9847 Y42.6901
G01 X31.0159 Y42.7213
G01 X31.0434 Y42.7558
G01 X31.0668 Y42.7933
G01 X31.0859 Y42.8331
G01 X31.1003 Y42.8749
G01 X31.1099 Y42.9180
G01 X31.1145 Y42.9619
G01 X31.1145 Y44.2001
G01 X31.1099 Y44.2440
G01 X31.1003 Y44.2871
G01 X31.0859 Y44.3289
G01 X31.0668 Y44.3687
G01 X31.0434 Y44.4062
G01 X31.0159 Y44.4407
G01 X30.9847 Y44.4719
G01 X30.9502 Y44.4994
G01 X30.9127 Y44.5228
G01 X30.8729 Y44.5419
G01 X30.8312 Y44.5563
G01 X30.7881 Y44.5659
G01 X30.7441 Y44.5705
G01 X30.7250 Y44.5710
G01 X27.7059 Y44.5705
G01 X27.6619 Y44.5659
G01 X27.6188 Y44.5563
G01 X27.5771 Y44.5419
G01 X27.5373 Y44.5228
G01 X27.4998 Y44.4994
G01 X27.4653 Y44.4719
G01 X27.4341 Y44.4407
G01 X27.4066 Y44.4062
G01 X27.3832 Y44.3687
G01 X27.3641 Y44.3289
G01 X27.3497 Y44.2871
G01 X27.3401 Y44.2440
G01 X27.3355 Y44.2001
G01 X27.3350 Y44.1810
G01 X27.3355 Y42.9619
G01 X27.3401 Y42.9180
G01 X27.3497 Y42.8749
G01 X27.3641 Y42.8331
G01 X27.3832 Y42.7933
G01 X27.4066 Y42.7558
G01 X27.4341 Y42.7213
G01 X27.4653 Y42.6901
G01 X27.4998 Y42.6626
G01 X27.5373 Y42.6392
G01 X27.5771 Y42.6201
G01 X27.6188 Y42.6057
G01 X27.6619 Y42.5961
G01 X27.7059 Y42.5915
G01 X27.7250 Y42.5910
G01 X28.4350 Y42.5910
G01 X28.4350 Y33.8702
G01 X25.5798 Y31.0150
G01 X24.1929 Y31.0150
G01 X24.1455 Y31.0665
G01 X24.0590 Y31.1450
G01 X23.9652 Y31.2145
G01 X23.8817 Y31.2651
G01 X23.8479 Y31.2832
G01 X23.7769 Y31.3168
G01 X23.7416 Y31.3314
G01 X23.6495 Y31.3639
G01 X23.5362 Y31.3922
G01 X23.4207 Y31.4094
G01 X23.3040 Y31.4151
G01 X22.4054 Y31.4150
G01 X22.2983 Y31.4094
G01 X22.2017 Y31.3955
G01 X22.1641 Y31.3880
G01 X22.0880 Y31.3690
G01 X22.0514 Y31.3579
G01 X21.9596 Y31.3245
G01 X21.8540 Y31.2746
G01 X21.7538 Y31.2145
G01 X21.6751 Y31.1567
G01 X21.6455 Y31.1325
G01 X21.5873 Y31.0797
G01 X21.5603 Y31.0527
G01 X21.4950 Y30.9800
G01 X21.4255 Y30.8862
G01 X21.3654 Y30.7860
G01 X21.3232 Y30.6979
G01 X21.3086 Y30.6626
G01 X21.2821 Y30.5886
G01 X21.2710 Y30.5520
G01 X21.2478 Y30.4572
G01 X21.2330 Y30.3606
G01 X21.2292 Y30.3226
G01 X21.2249 Y30.2250
G01 X21.2292 Y30.1274
G01 X21.2330 Y30.0894
G01 X21.2445 Y30.0117
G01 X21.2520 Y29.9741
G01 X21.2761 Y29.8795
G01 X21.3155 Y29.7696
G01 X21.3654 Y29.6640
G01 X21.4152 Y29.5800
G01 X21.4365 Y29.5482
G01 X21.4950 Y29.4700
G01 X21.5735 Y29.3835
G01 X21.6600 Y29.3050
G01 X21.7538 Y29.2355
G01 X21.8540 Y29.1754
G01 X21.9596 Y29.1255
G01 X22.0695 Y29.0861
G01 X22.1641 Y29.0620
G01 X22.2017 Y29.0545
G01 X22.2983 Y29.0406
G01 X22.4054 Y29.0350
G01 X23.3040 Y29.0349
G01 X23.4016 Y29.0392
G01 X23.4396 Y29.0430
G01 X23.5362 Y29.0578
G01 X23.6495 Y29.0861
G01 X23.7594 Y29.1255
G01 X23.8650 Y29.1754
G01 X23.9652 Y29.2355
G01 X24.0590 Y29.3050
G01 X24.1455 Y29.3835
G01 X24.1929 Y29.4350
G01 X25.1170 Y29.4350
G01 X25.1170 Y4.6442
G01 X25.0718 Y4.5990
G01 X3.8370 Y4.5990
G01 X3.8370 Y6.0263
G01 X3.8746 Y6.0603
G01 X3.9017 Y6.0874
G01 X3.9544 Y6.1456
G01 X3.9787 Y6.1752
G01 X4.0364 Y6.2539
G01 X4.0870 Y6.3374
G01 X4.1051 Y6.3711
G01 X4.1464 Y6.4596
G01 X4.1858 Y6.5696
G01 X4.2141 Y6.6828
G01 X4.2289 Y6.7794
G01 X4.2327 Y6.8175
G01 X4.2370 Y6.9150
G01 X4.2370 Y7.8150
G01 X4.2313 Y7.9316
G01 X4.2141 Y8.0472
G01 X4.1909 Y8.1420
G01 X4.1798 Y8.1786
G01 X4.1464 Y8.2704
G01 X4.1051 Y8.3589
G01 X4.0870 Y8.3926
G01 X4.0467 Y8.4600
G01 X4.0254 Y8.4918
G01 X3.9787 Y8.5548
G01 X3.9544 Y8.5844
G01 X3.8885 Y8.6565
G01 X3.8019 Y8.7349
G01 X3.7081 Y8.8044
G01 X3.6246 Y8.8550
G01 X3.5909 Y8.8731
G01 X3.5199 Y8.9067
G01 X3.4845 Y8.9213
G01 X3.3924 Y8.9538
G01 X3.2792 Y8.9821
G01 X3.1636 Y8.9993
G01 X3.0661 Y9.0045
G01 X3.0279 Y9.0045
G01 X2.9495 Y9.0007
G01 X2.9114 Y8.9969
G01 X2.8148 Y8.9821
G01 X2.7016 Y8.9538
G01 X2.5916 Y8.9144
G01 X2.5031 Y8.8731
G01 X2.4694 Y8.8550
G01 X2.3859 Y8.8044
G01 X2.2921 Y8.7349
G01 X2.2194 Y8.6697
G01 X2.1923 Y8.6426
G01 X2.1396 Y8.5844
G01 X2.1153 Y8.5548
G01 X2.0576 Y8.4761
G01 X1.9975 Y8.3760
G01 X1.9476 Y8.2704
G01 X1.9142 Y8.1786
G01 X1.9031 Y8.1420
G01 X1.8841 Y8.0658
G01 X1.8766 Y8.0283
G01 X1.8627 Y7.9316
G01 X1.8570 Y7.8150
G00 Z2.0000
G00 X4.3970 Y7.8150
G01 F300.00
G01 Z-0.1000
G01 F300.00
G01 X4.3971 Y6.9054
G01 X4.4027 Y6.7984
G01 X4.4166 Y6.7017
G01 X4.4241 Y6.6642
G01 X4.4482 Y6.5696
G01 X4.4876 Y6.4596
G01 X4.5375 Y6.3540
G01 X4.5873 Y6.2700
G01 X4.6086 Y6.2382
G01 X4.6553 Y6.1752
G01 X4.6796 Y6.1456
G01 X4.7455 Y6.0735
G01 X4.8176 Y6.0076
G01 X4.8472 Y5.9833
G01 X4.9259 Y5.9256
G01 X5.0260 Y5.8655
G01 X5.1316 Y5.8156
G01 X5.2416 Y5.7762
G01 X5.3548 Y5.7479
G01 X5.4704 Y5.7307
G01 X5.5870 Y5.7250
G01 X5.7036 Y5.7307
G01 X5.8192 Y5.7479
G01 X5.9324 Y5.7762
G01 X6.0424 Y5.8156
G01 X6.1480 Y5.8655
G01 X6.2481 Y5.9256
G01 X6.3419 Y5.9951
G01 X6.4285 Y6.0735
G01 X6.4944 Y6.1456
G01 X6.5187 Y6.1752
G01 X6.5764 Y6.2539
G01 X6.6365 Y6.3540
G01 X6.6864 Y6.4596
G01 X6.7198 Y6.5514
G01 X6.7309 Y6.5880
G01 X6.7499 Y6.6642
G01 X6.7574 Y6.7017
G01 X6.7713 Y6.7984
G01 X6.7769 Y6.9054
G01 X6.7770 Y7.8150
G01 X6.7713 Y7.9316
G01 X6.7541 Y8.0472
G01 X6.7258 Y8.1604
G01 X6.6864 Y8.2704
G01 X6.6451 Y8.3589
G01 X6.6310 Y8.3856
G01 X6.6310 Y11.3558
G01 X6.6762 Y11.4010
G01 X14.7406 Y11.4011
G01 X14.8084 Y11.4048
G01 X14.8663 Y11.4129
G01 X14.9038 Y11.4204
G01 X14.9419 Y11.4299
G01 X14.9785 Y11.4410
G01 X15.0333 Y11.4611
G01 X15.1034 Y11.4943
G01 X15.1699 Y11.5341
G01 X15.2171 Y11.5685
G01 X15.2467 Y11.5928
G01 X15.2828 Y11.6257
G01 X15.5436 Y11.8864
G01 X15.5957 Y11.9438
G01 X15.6308 Y11.9904
G01 X15.6521 Y12.0223
G01 X15.6817 Y12.0726
G01 X15.7149 Y12.1427
G01 X15.7410 Y12.2157
G01 X15.7556 Y12.2722
G01 X15.7631 Y12.3097
G01 X15.7712 Y12.3676
G01 X15.7750 Y12.4450
G01 X15.7750 Y16.4358
G01 X16.0742 Y16.7350
G01 X21.5261 Y16.7350
G01 X21.5735 Y16.6835
G01 X21.6600 Y16.6050
G01 X21.7538 Y16.5355
G01 X21.8373 Y16.4849
G01 X21.8711 Y16.4668
G01 X21.9421 Y16.4332
G01 X21.9774 Y16.4186
G01 X22.0695 Y16.3861
G01 X22.1828 Y16.3578
G01 X22.2983 Y16.3406
G01 X22.4150 Y16.3349
G01 X23.3136 Y16.3350
G01 X23.4207 Y16.3406
G01 X23.5173 Y16.3545
G01 X23.5549 Y16.3620
G01 X23.6495 Y16.3861
G01 X23.7594 Y16.4255
G01 X23.8650 Y16.4754
G01 X23.9490 Y16.5252
G01 X23.9808 Y16.5465
G01 X24.0439 Y16.5933
G01 X24.0735 Y16.6175
G01 X24.1455 Y16.6835
G01 X24.2115 Y16.7555
G01 X24.2357 Y16.7851
G01 X24.2935 Y16.8638
G01 X24.3441 Y16.9473
G01 X24.3622 Y16.9811
G01 X24.3958 Y17.0521
G01 X24.4104 Y17.0874
G01 X24.4429 Y17.1795
G01 X24.4670 Y17.2741
G01 X24.4745 Y17.3117
G01 X24.4884 Y17.4083
G01 X24.4941 Y17.5250
G01 X24.4884 Y17.6417
G01 X24.4745 Y17.7383
G01 X24.4670 Y17.7759
G01 X24.4429 Y17.8705
G01 X24.4104 Y17.9626
G01 X24.3958 Y17.9979
G01 X24.3536 Y18.0860
G01 X24.3038 Y18.1700
G01 X24.2825 Y18.2018
G01 X24.2240 Y18.2800
G01 X24.1587 Y18.3527
G01 X24.1317 Y18.3797
G01 X24.0590 Y18.4450
G01 X23.9808 Y18.5035
G01 X23.9490 Y18.5248
G01 X23.8650 Y18.5746
G01 X23.7769 Y18.6168
G01 X23.7416 Y18.6314
G01 X23.6495 Y18.6639
G01 X23.5549 Y18.6880
G01 X23.5173 Y18.6955
G01 X23.4207 Y18.7094
G01 X23.3136 Y18.7150
G01 X22.4054 Y18.7150
G01 X22.2983 Y18.7094
G01 X22.1828 Y18.6922
G01 X22.0695 Y18.6639
G01 X21.9774 Y18.6314
G01 X21.9421 Y18.6168
G01 X21.8711 Y18.5832
G01 X21.8373 Y18.5651
G01 X21.7538 Y18.5145
G01 X21.6600 Y18.4450
G01 X21.5735 Y18.3665
G01 X21.5261 Y18.3150
G01 X15.7374 Y18.3149
G01 X15.6887 Y18.3126
G01 X15.6506 Y18.3089
G01 X15.5929 Y18.2998
G01 X15.5361 Y18.2861
G01 X15.4995 Y18.2750
G01 X15.4447 Y18.2549
G01 X15.3746 Y18.2217
G01 X15.3243 Y18.1921
G01 X15.2924 Y18.1708
G01 X15.2458 Y18.1357
G01 X15.1952 Y18.0903
G01 X14.4264 Y17.3216
G01 X14.3868 Y17.2787
G01 X14.3625 Y17.2491
G01 X14.3281 Y17.2019
G01 X14.2977 Y17.1521
G01 X14.2797 Y17.1183
G01 X14.2551 Y17.0653
G01 X14.2350 Y17.0105
G01 X14.2239 Y16.9739
G01 X14.2144 Y16.9358
G01 X14.2069 Y16.8983
G01 X14.1988 Y16.8404
G01 X14.1950 Y16.7630
G01 X14.1950 Y12.9810
G01 X6.3490 Y12.9810
G01 X6.2716 Y12.9772
G01 X6.2137 Y12.9691
G01 X6.1762 Y12.9616
G01 X6.1197 Y12.9470
G01 X6.0645 Y12.9278
G01 X6.0292 Y12.9131
G01 X5.9766 Y12.8877
G01 X5.9263 Y12.8581
G01 X5.8944 Y12.8368
G01 X5.8478 Y12.8017
G01 X5.7972 Y12.7563
G01 X5.2692 Y12.2277
G01 X5.2428 Y12.1987
G01 X5.2185 Y12.1691
G01 X5.1841 Y12.1219
G01 X5.1537 Y12.0721
G01 X5.1357 Y12.0383
G01 X5.1111 Y11.9853
G01 X5.0850 Y11.9123
G01 X5.0662 Y11.8371
G01 X5.0571 Y11.7794
G01 X5.0534 Y11.7413
G01 X5.0510 Y11.6830
G01 X5.0510 Y8.8768
G01 X5.0260 Y8.8645
G01 X5.0094 Y8.8550
G01 X4.9259 Y8.8044
G01 X4.8472 Y8.7467
G01 X4.8176 Y8.7224
G01 X4.7455 Y8.6565
G01 X4.6796 Y8.5844
G01 X4.6553 Y8.5548
G01 X4.6086 Y8.4918
G01 X4.5873 Y8.4600
G01 X4.5375 Y8.3760
G01 X4.4953 Y8.2879
G01 X4.4807 Y8.2525
G01 X4.4482 Y8.1604
G01 X4.4199 Y8.0472
G01 X4.4051 Y7.9506
G01 X4.4013 Y7.9125
G01 X4.3970 Y7.8150
G00 Z2.0000
G00 X6.9370 Y7.8150
G01 F300.00
G01 Z-0.1000
G01 F300.00
G01 X6.9371 Y6.9054
G01 X6.9427 Y6.7984
G01 X6.9566 Y6.7017
G01 X6.9641 Y6.6642
G01 X6.9882 Y6.5696
G01 X7.0207 Y6.4775
G01 X7.0353 Y6.4421
G01 X7.0775 Y6.3540
G01 X7.1273 Y6.2700
G01 X7.1486 Y6.2382
G01 X7.2071 Y6.1601
G01 X7.2855 Y6.0735
G01 X7.3576 Y6.0076
G01 X7.3872 Y5.9833
G01 X7.4502 Y5.9366
G01 X7.4820 Y5.9153
G01 X7.5660 Y5.8655
G01 X7.6716 Y5.8156
G01 X7.7816 Y5.7762
G01 X7.8762 Y5.7521
G01 X7.9137 Y5.7446
G01 X7.9914 Y5.7331
G01 X8.0295 Y5.7293
G01 X8.1270 Y5.7250
G01 X8.2436 Y5.7307
G01 X8.3592 Y5.7479
G01 X8.4540 Y5.7711
G01 X8.4906 Y5.7822
G01 X8.5824 Y5.8156
G01 X8.6709 Y5.8569
G01 X8.7046 Y5.8750
G01 X8.7881 Y5.9256
G01 X8.8668 Y5.9833
G01 X8.8964 Y6.0076
G01 X8.9685 Y6.0735
G01 X9.0344 Y6.1456
G01 X9.0587 Y6.1752
G01 X9.1164 Y6.2539
G01 X9.1670 Y6.3374
G01 X9.1851 Y6.3711
G01 X9.2264 Y6.4596
G01 X9.2598 Y6.5514
G01 X9.2709 Y6.5880
G01 X9.2941 Y6.6828
G01 X9.3113 Y6.7984
G01 X9.3170 Y6.9150
G01 X9.3170 Y7.8150
G01 X9.3127 Y7.9125
G01 X9.3089 Y7.9506
G01 X9.2941 Y8.0472
G01 X9.2658 Y8.1604
G01 X9.2264 Y8.2704
G01 X9.1765 Y8.3760
G01 X9.1164 Y8.4761
G01 X9.0469 Y8.5699
G01 X8.9685 Y8.6565
G01 X8.9170 Y8.7037
G01 X8.9170 Y9.6230
G01 X16.5090 Y9.6230
G01 X16.5863 Y9.6268
G01 X16.6629 Y9.6381
G01 X16.7379 Y9.6569
G01 X16.7930 Y9.6761
G01 X16.8283 Y9.6907
G01 X16.8808 Y9.7160
G01 X16.9392 Y9.7505
G01 X17.7092 Y10.2637
G01 X17.7716 Y10.3099
G01 X17.8153 Y10.3487
G01 X17.8424 Y10.3758
G01 X17.8813 Y10.4194
G01 X17.9276 Y10.4817
G01 X17.9675 Y10.5482
G01 X17.9930 Y10.6009
G01 X18.0076 Y10.6363
G01 X18.0269 Y10.6914
G01 X18.0458 Y10.7667
G01 X18.0548 Y10.8245
G01 X18.0586 Y10.8626
G01 X18.0610 Y10.9210
G01 X18.0610 Y14.1498
G01 X18.1062 Y14.1950
G01 X21.5261 Y14.1950
G01 X21.5735 Y14.1435
G01 X21.6600 Y14.0650
G01 X21.7538 Y13.9955
G01 X21.8373 Y13.9449
G01 X21.8711 Y13.9268
G01 X21.9421 Y13.8932
G01 X21.9774 Y13.8786
G01 X22.0695 Y13.8461
G01 X22.1828 Y13.8178
G01 X22.2983 Y13.8006
G01 X22.4054 Y13.7950
G01 X23.3040 Y13.7949
G01 X23.4207 Y13.8006
G01 X23.5362 Y13.8178
G01 X23.6495 Y13.8461
G01 X23.7416 Y13.8786
G01 X23.7769 Y13.8932
G01 X23.8479 Y13.9268
G01 X23.8817 Y13.9449
G01 X23.9652 Y13.9955
G01 X24.0439 Y14.0533
G01 X24.0735 Y14.0775
G01 X24.1455 Y14.1435
G01 X24.2240 Y14.2300
G01 X24.2935 Y14.3238
G01 X24.3536 Y14.4240
G01 X24.4035 Y14.5296
G01 X24.4429 Y14.6395
G01 X24.4712 Y14.7528
G01 X24.4860 Y14.8494
G01 X24.4898 Y14.8874
G01 X24.4936 Y14.9659
G01 X24.4936 Y15.0041
G01 X24.4884 Y15.1017
G01 X24.4745 Y15.1983
G01 X24.4670 Y15.2359
G01 X24.4429 Y15.3305
G01 X24.4035 Y15.4404
G01 X24.3622 Y15.5289
G01 X24.3441 Y15.5627
G01 X24.2935 Y15.6462
G01 X24.2240 Y15.7400
G01 X24.1587 Y15.8127
G01 X24.1317 Y15.8397
G01 X24.0590 Y15.9050
G01 X23.9652 Y15.9745
G01 X23.8650 Y16.0346
G01 X23.7769 Y16.0768
G01 X23.7416 Y16.0914
G01 X23.6495 Y16.1239
G01 X23.5549 Y16.1480
G01 X23.5173 Y16.1555
G01 X23.4207 Y16.1694
G01 X23.3231 Y16.1746
G01 X22.4054 Y16.1750
G01 X22.2983 Y16.1694
G01 X22.1828 Y16.1522
G01 X22.0695 Y16.1239
G01 X21.9774 Y16.0914
G01 X21.9421 Y16.0768
G01 X21.8711 Y16.0432
G01 X21.8373 Y16.0251
G01 X21.7538 Y15.9745
G01 X21.6600 Y15.9050
G01 X21.5735 Y15.8265
G01 X21.5261 Y15.7750
G01 X17.7694 Y15.7749
G01 X17.7016 Y15.7712
G01 X17.6249 Y15.7598
G01 X17.5497 Y15.7410
G01 X17.4767 Y15.7149
G01 X17.4066 Y15.6817
G01 X17.3563 Y15.6521
G01 X17.3244 Y15.6308
G01 X17.2929 Y15.6075
G01 X17.2633 Y15.5832
G01 X17.2204 Y15.5436
G01 X16.6992 Y15.0217
G01 X16.6603 Y14.9782
G01 X16.6252 Y14.9316
G01 X16.6039 Y14.8997
G01 X16.5743 Y14.8494
G01 X16.5489 Y14.7968
G01 X16.5342 Y14.7615
G01 X16.5150 Y14.7063
G01 X16.5004 Y14.6498
G01 X16.4929 Y14.6123
G01 X16.4848 Y14.5544
G01 X16.4810 Y14.4770
G01 X16.4810 Y11.3438
G01 X16.2698 Y11.2030
G01 X8.1270 Y11.2030
G01 X8.0496 Y11.1992
G01 X7.9729 Y11.1878
G01 X7.8977 Y11.1690
G01 X7.8425 Y11.1498
G01 X7.8072 Y11.1351
G01 X7.7546 Y11.1097
G01 X7.6881 Y11.0699
G01 X7.6258 Y11.0237
G01 X7.5823 Y10.9848
G01 X7.5552 Y10.9577
G01 X7.5288 Y10.9287
G01 X7.5045 Y10.8991
G01 X7.4701 Y10.8519
G01 X7.4397 Y10.8021
G01 X7.4217 Y10.7683
G01 X7.3971 Y10.7153
G01 X7.3770 Y10.6605
G01 X7.3659 Y10.6239
G01 X7.3522 Y10.5671
G01 X7.3431 Y10.5094
G01 X7.3394 Y10.4713
G01 X7.3371 Y10.4226
G01 X7.3370 Y8.7037
G01 X7.2855 Y8.6565
G01 X7.2196 Y8.5844
G01 X7.1953 Y8.5548
G01 X7.1486 Y8.4918
G01 X7.1273 Y8.4600
G01 X7.0775 Y8.3760
G01 X7.0353 Y8.2879
G01 X7.0207 Y8.2525
G01 X6.9882 Y8.1604
G01 X6.9599 Y8.0472
G01 X6.9427 Y7.9316
G01 X6.9370 Y7.8150
G00 Z2.0000
G00 X9.4770 Y7.8150
G01 F300.00
G01 Z-0.1000
G01 F300.00
G01 X9.4770 Y6.9150
G01 X9.4827 Y6.7984
G01 X9.4999 Y6.6828
G01 X9.5282 Y6.5696
G01 X9.5676 Y6.4596
G01 X9.6175 Y6.3540
G01 X9.6673 Y6.2700
G01 X9.6886 Y6.2382
G01 X9.7471 Y6.1601
G01 X9.8123 Y6.0874
G01 X9.8394 Y6.0603
G01 X9.9121 Y5.9951
G01 X10.0059 Y5.9256
G01 X10.1060 Y5.8655
G01 X10.1941 Y5.8233
G01 X10.2295 Y5.8087
G01 X10.3216 Y5.7762
G01 X10.4162 Y5.7521
G01 X10.4537 Y5.7446
G01 X10.5504 Y5.7307
G01 X10.6670 Y5.7250
G01 X10.7645 Y5.7293
G01 X10.8026 Y5.7331
G01 X10.8803 Y5.7446
G01 X10.9178 Y5.7521
G01 X11.0124 Y5.7762
G01 X11.1224 Y5.8156
G01 X11.2280 Y5.8655
G01 X11.3281 Y5.9256
G01 X11.4219 Y5.9951
G01 X11.5085 Y6.0735
G01 X11.5869 Y6.1601
G01 X11.6454 Y6.2382
G01 X11.6667 Y6.2700
G01 X11.7070 Y6.3374
G01 X11.7251 Y6.3711
G01 X11.7664 Y6.4596
G01 X11.7998 Y6.5514
G01 X11.8073 Y6.5750
G01 X19.0490 Y6.5750
G01 X19.1264 Y6.5788
G01 X19.1843 Y6.5869
G01 X19.2218 Y6.5944
G01 X19.2599 Y6.6039
G01 X19.2965 Y6.6150
G01 X19.3513 Y6.6351
G01 X19.4214 Y6.6683
G01 X19.4879 Y6.7081
G01 X19.5502 Y6.7543
G01 X19.6076 Y6.8064
G01 X19.8616 Y7.0604
G01 X19.9012 Y7.1033
G01 X19.9255 Y7.1329
G01 X19.9599 Y7.1801
G01 X19.9903 Y7.2299
G01 X20.0083 Y7.2637
G01 X20.0329 Y7.3167
G01 X20.0530 Y7.3715
G01 X20.0641 Y7.4081
G01 X20.0736 Y7.4462
G01 X20.0811 Y7.4837
G01 X20.0892 Y7.5416
G01 X20.0930 Y7.6190
G01 X20.0930 Y11.6550
G01 X21.5261 Y11.6550
G01 X21.5735 Y11.6035
G01 X21.6600 Y11.5250
G01 X21.7538 Y11.4555
G01 X21.8540 Y11.3954
G01 X21.9596 Y11.3455
G01 X22.0695 Y11.3061
G01 X22.1828 Y11.2778
G01 X22.2983 Y11.2606
G01 X22.4150 Y11.2549
G01 X23.3136 Y11.2550
G01 X23.4016 Y11.2592
G01 X23.4396 Y11.2630
G01 X23.5362 Y11.2778
G01 X23.6310 Y11.3010
G01 X23.6676 Y11.3121
G01 X23.7594 Y11.3455
G01 X23.8650 Y11.3954
G01 X23.9652 Y11.4555
G01 X24.0590 Y11.5250
G01 X24.1455 Y11.6035
G01 X24.2240 Y11.6900
G01 X24.2935 Y11.7838
G01 X24.3536 Y11.8840
G01 X24.4035 Y11.9896
G01 X24.4429 Y12.0995
G01 X24.4712 Y12.2128
G01 X24.4884 Y12.3283
G01 X24.4941 Y12.4450
G01 X24.4884 Y12.5617
G01 X24.4712 Y12.6772
G01 X24.4480 Y12.7720
G01 X24.4369 Y12.8086
G01 X24.4035 Y12.9004
G01 X24.3622 Y12.9889
G01 X24.3441 Y13.0227
G01 X24.3038 Y13.0900
G01 X24.2825 Y13.1218
G01 X24.2240 Y13.2000
G01 X24.1455 Y13.2865
G01 X24.0590 Y13.3650
G01 X23.9808 Y13.4235
G01 X23.9490 Y13.4448
G01 X23.8817 Y13.4851
G01 X23.8479 Y13.5032
G01 X23.7594 Y13.5445
G01 X23.6495 Y13.5839
G01 X23.5549 Y13.6080
G01 X23.5173 Y13.6155
G01 X23.4207 Y13.6294
G01 X23.3231 Y13.6346
G01 X22.4054 Y13.6350
G01 X22.2983 Y13.6294
G01 X22.1828 Y13.6122
G01 X22.0695 Y13.5839
G01 X21.9774 Y13.5514
G01 X21.9421 Y13.5368
G01 X21.8711 Y13.5032
G01 X21.8373 Y13.4851
G01 X21.7538 Y13.4345
G01 X21.6600 Y13.3650
G01 X21.5735 Y13.2865
G01 X21.5261 Y13.2350
G01 X19.5570 Y13.2350
G01 X19.4987 Y13.2326
G01 X19.4606 Y13.2289
G01 X19.4217 Y13.2231
G01 X19.3842 Y13.2156
G01 X19.3277 Y13.2010
G01 X19.2547 Y13.1749
G01 X19.2017 Y13.1503
G01 X19.1679 Y13.1323
G01 X19.1181 Y13.1019
G01 X19.0558 Y13.0557
G01 X18.9984 Y13.0036
G01 X18.7377 Y12.7428
G01 X18.6923 Y12.6922
G01 X18.6461 Y12.6299
G01 X18.6157 Y12.5801
G01 X18.5977 Y12.5463
G01 X18.5731 Y12.4933
G01 X18.5530 Y12.4385
G01 X18.5419 Y12.4019
G01 X18.5282 Y12.3451
G01 X18.5168 Y12.2684
G01 X18.5130 Y12.1910
G01 X18.5130 Y8.1550
G01 X11.8073 Y8.1550
G01 X11.7998 Y8.1786
G01 X11.7664 Y8.2704
G01 X11.7251 Y8.3589
G01 X11.7070 Y8.3926
G01 X11.6667 Y8.4600
G01 X11.6454 Y8.4918
G01 X11.5869 Y8.5699
G01 X11.5085 Y8.6565
G01 X11.4219 Y8.7349
G01 X11.3438 Y8.7934
G01 X11.3120 Y8.8147
G01 X11.2446 Y8.8550
G01 X11.2109 Y8.8731
G01 X11.1224 Y8.9144
G01 X11.0124 Y8.9538
G01 X10.8992 Y8.9821
G01 X10.8026 Y8.9969
G01 X10.7645 Y9.0007
G01 X10.6861 Y9.0045
G01 X10.6479 Y9.0045
G01 X10.5504 Y8.9993
G01 X10.4348 Y8.9821
G01 X10.3216 Y8.9538
G01 X10.2116 Y8.9144
G01 X10.1060 Y8.8645
G01 X10.0059 Y8.8044
G01 X9.9121 Y8.7349
G01 X9.8255 Y8.6565
G01 X9.7471 Y8.5699
G01 X9.6776 Y8.4761
G01 X9.6175 Y8.3760
G01 X9.5676 Y8.2704
G01 X9.5282 Y8.1604
G01 X9.4999 Y8.0472
G01 X9.4827 Y7.9316
G01 X9.4770 Y7.8150
G00 Z2.0000
G00 X11.4570 Y13.6002
G01 F300.00
G01 Z-0.1000
G01 F300.00
G01 X11.4811 Y13.6342
G01 X11.5102 Y13.6668
G01 X11.5638 Y13.7227
G01 X11.6048 Y13.7699
G01 X11.6406 Y13.8160
G01 X11.6937 Y13.8947
G01 X11.7077 Y13.9173
G01 X11.7370 Y13.9700
G01 X11.7142 Y13.9700
G01 X11.6564 Y13.8739
G01 X11.5869 Y13.7801
G01 X11.5085 Y13.6935
G01 X11.4570 Y13.6463
G01 X11.4570 Y13.6002
G00 Z2.0000
G00 X11.4570 Y16.3520
G01 F300.00
G01 Z-0.1000
G01 F300.00
G01 X11.4570 Y16.3237
G01 X11.5085 Y16.2765
G01 X11.5869 Y16.1899
G01 X11.6564 Y16.0961
G01 X11.7142 Y16.0000
G01 X11.7376 Y16.0000
G01 X11.7234 Y16.0260
G01 X11.6924 Y16.0784
G01 X11.6557 Y16.1333
G01 X11.6406 Y16.1550
G01 X11.6250 Y16.1752
G01 X11.5832 Y16.2260
G01 X11.5638 Y16.2483
G01 X11.5440 Y16.2697
G01 X11.5232 Y16.2912
G01 X11.5017 Y16.3120
G01 X11.4803 Y16.3318
G01 X11.4570 Y16.3520
G00 Z2.0000
G00 X6.9370 Y15.4350
G01 F300.00
G01 Z-0.1000
G01 F300.00
G01 X6.9371 Y14.5254
G01 X6.9427 Y14.4184
G01 X6.9566 Y14.3217
G01 X6.9641 Y14.2842
G01 X6.9882 Y14.1896
G01 X7.0276 Y14.0796
G01 X7.0775 Y13.9740
G01 X7.1273 Y13.8900
G01 X7.1486 Y13.8582
G01 X7.2071 Y13.7801
G01 X7.2723 Y13.7074
G01 X7.2994 Y13.6803
G01 X7.3576 Y13.6276
G01 X7.3872 Y13.6033
G01 X7.4659 Y13.5456
G01 X7.5660 Y13.4855
G01 X7.6716 Y13.4356
G01 X7.7816 Y13.3962
G01 X7.8948 Y13.3679
G01 X8.0104 Y13.3507
G01 X8.1270 Y13.3450
G01 X8.2436 Y13.3507
G01 X8.3592 Y13.3679
G01 X8.4724 Y13.3962
G01 X8.5824 Y13.4356
G01 X8.6880 Y13.4855
G01 X8.7881 Y13.5456
G01 X8.8819 Y13.6151
G01 X8.9685 Y13.6935
G01 X9.0344 Y13.7656
G01 X9.0587 Y13.7952
G01 X9.1164 Y13.8739
G01 X9.1670 Y13.9574
G01 X9.1851 Y13.9911
G01 X9.2187 Y14.0621
G01 X9.2333 Y14.0975
G01 X9.2658 Y14.1896
G01 X9.2899 Y14.2842
G01 X9.2974 Y14.3217
G01 X9.3113 Y14.4184
G01 X9.3169 Y14.5254
G01 X9.3169 Y15.4446
G01 X9.3113 Y15.5516
G01 X9.2941 Y15.6672
G01 X9.2658 Y15.7804
G01 X9.2333 Y15.8725
G01 X9.2187 Y15.9079
G01 X9.1765 Y15.9960
G01 X9.1267 Y16.0800
G01 X9.1054 Y16.1118
G01 X9.0587 Y16.1748
G01 X9.0344 Y16.2044
G01 X8.9685 Y16.2765
G01 X8.9170 Y16.3237
G01 X8.9170 Y19.9918
G01 X8.9476 Y19.9937
G01 X8.9666 Y19.9961
G01 X9.0443 Y20.0076
G01 X9.0818 Y20.0151
G01 X9.1764 Y20.0392
G01 X9.2685 Y20.0717
G01 X9.3039 Y20.0863
G01 X9.3920 Y20.1285
G01 X9.4921 Y20.1886
G01 X9.5859 Y20.2581
G01 X9.6586 Y20.3233
G01 X9.6857 Y20.3504
G01 X9.7509 Y20.4231
G01 X9.8204 Y20.5169
G01 X9.8805 Y20.6170
G01 X9.9304 Y20.7226
G01 X9.9698 Y20.8326
G01 X9.9981 Y20.9458
G01 X10.0153 Y21.0614
G01 X10.0210 Y21.1780
G01 X10.0153 Y21.2946
G01 X10.0014 Y21.3913
G01 X9.9939 Y21.4288
G01 X9.9749 Y21.5050
G01 X9.9638 Y21.5416
G01 X9.9304 Y21.6334
G01 X9.8805 Y21.7390
G01 X9.8204 Y21.8391
G01 X9.7627 Y21.9178
G01 X9.7384 Y21.9474
G01 X9.6857 Y22.0056
G01 X9.6586 Y22.0327
G01 X9.5859 Y22.0979
G01 X9.4921 Y22.1674
G01 X9.3920 Y22.2275
G01 X9.3039 Y22.2697
G01 X9.2685 Y22.2843
G01 X9.1764 Y22.3168
G01 X9.0818 Y22.3409
G01 X9.0443 Y22.3484
G01 X8.9476 Y22.3623
G01 X8.8501 Y22.3675
G01 X7.9310 Y22.3680
G01 X7.8144 Y22.3623
G01 X7.7177 Y22.3484
G01 X7.6802 Y22.3409
G01 X7.6040 Y22.3219
G01 X7.5674 Y22.3108
G01 X7.4935 Y22.2843
G01 X7.4581 Y22.2697
G01 X7.3700 Y22.2275
G01 X7.2860 Y22.1777
G01 X7.2542 Y22.1564
G01 X7.1761 Y22.0979
G01 X7.0895 Y22.0195
G01 X7.0236 Y21.9474
G01 X6.9993 Y21.9178
G01 X6.9416 Y21.8391
G01 X6.8910 Y21.7556
G01 X6.8729 Y21.7219
G01 X6.8316 Y21.6334
G01 X6.7922 Y21.5234
G01 X6.7639 Y21.4102
G01 X6.7467 Y21.2946
G01 X6.7410 Y21.1780
G01 X6.7453 Y21.0805
G01 X6.7491 Y21.0424
G01 X6.7606 Y20.9647
G01 X6.7681 Y20.9272
G01 X6.7922 Y20.8326
G01 X6.8316 Y20.7226
G01 X6.8815 Y20.6170
G01 X6.9313 Y20.5330
G01 X6.9526 Y20.5012
G01 X6.9993 Y20.4382
G01 X7.0236 Y20.4086
G01 X7.0895 Y20.3365
G01 X7.1761 Y20.2581
G01 X7.2699 Y20.1886
G01 X7.3370 Y20.1478
G01 X7.3370 Y16.3237
G01 X7.2855 Y16.2765
G01 X7.2196 Y16.2044
G01 X7.1953 Y16.1748
G01 X7.1486 Y16.1118
G01 X7.1273 Y16.0800
G01 X7.0775 Y15.9960
G01 X7.0353 Y15.9079
G01 X7.0207 Y15.8725
G01 X6.9882 Y15.7804
G01 X6.9599 Y15.6672
G01 X6.9427 Y15.5516
G01 X6.9370 Y15.4350
G00 Z2.0000
G00 X4.3970 Y15.4350
G01 F300.00
G01 Z-0.1000
G01 F300.00
G01 X4.3971 Y14.5254
G01 X4.4027 Y14.4184
G01 X4.4166 Y14.3217
G01 X4.4241 Y14.2842
G01 X4.4482 Y14.1896
G01 X4.4876 Y14.0796
G01 X4.5375 Y13.9740
G01 X4.5873 Y13.8900
G01 X4.6086 Y13.8582
G01 X4.6671 Y13.7801
G01 X4.7323 Y13.7074
G01 X4.7594 Y13.6803
G01 X4.8176 Y13.6276
G01 X4.8472 Y13.6033
G01 X4.9259 Y13.5456
G01 X5.0260 Y13.4855
G01 X5.1316 Y13.4356
G01 X5.2416 Y13.3962
G01 X5.3548 Y13.3679
G01 X5.4704 Y13.3507
G01 X5.5870 Y13.3450
G01 X5.7036 Y13.3507
G01 X5.8192 Y13.3679
G01 X5.9324 Y13.3962
G01 X6.0424 Y13.4356
G01 X6.1480 Y13.4855
G01 X6.2481 Y13.5456
G01 X6.3419 Y13.6151
G01 X6.4285 Y13.6935
G01 X6.4944 Y13.7656
G01 X6.5187 Y13.7952
G01 X6.5764 Y13.8739
G01 X6.6270 Y13.9574
G01 X6.6451 Y13.9911
G01 X6.6864 Y14.0796
G01 X6.7198 Y14.1714
G01 X6.7309 Y14.2080
G01 X6.7541 Y14.3028
G01 X6.7689 Y14.3994
G01 X6.7727 Y14.4375
G01 X6.7770 Y14.5350
G01 X6.7770 Y15.4350
G01 X6.7713 Y15.5516
G01 X6.7541 Y15.6672
G01 X6.7258 Y15.7804
G01 X6.6864 Y15.8904
G01 X6.6365 Y15.9960
G01 X6.5764 Y16.0961
G01 X6.5069 Y16.1899
G01 X6.4285 Y16.2765
G01 X6.3564 Y16.3424
G01 X6.3268 Y16.3667
G01 X6.2481 Y16.4244
G01 X6.1646 Y16.4750
G01 X6.1309 Y16.4931
G01 X6.0424 Y16.5344
G01 X5.9324 Y16.5738
G01 X5.8378 Y16.5979
G01 X5.8003 Y16.6054
G01 X5.7036 Y16.6193
G01 X5.5870 Y16.6250
G01 X5.4895 Y16.6207
G01 X5.4514 Y16.6169
G01 X5.3548 Y16.6021
G01 X5.2600 Y16.5789
G01 X5.2234 Y16.5678
G01 X5.1316 Y16.5344
G01 X5.0431 Y16.4931
G01 X5.0094 Y16.4750
G01 X4.9259 Y16.4244
G01 X4.8472 Y16.3667
G01 X4.8176 Y16.3424
G01 X4.7455 Y16.2765
G01 X4.6796 Y16.2044
G01 X4.6553 Y16.1748
G01 X4.6086 Y16.1118
G01 X4.5873 Y16.0800
G01 X4.5375 Y15.9960
G01 X4.4953 Y15.9079
G01 X4.4807 Y15.8725
G01 X4.4482 Y15.7804
G01 X4.4199 Y15.6672
G01 X4.4051 Y15.5706
G01 X4.4013 Y15.5325
G01 X4.3970 Y15.4350
G00 Z2.0000
G00 X4.0032 Y16.1774
G01 F300.00
G01 Z-0.1000
G01 F300.00
G01 X4.0185 Y16.1570
G01 X4.0483 Y16.1254
G01 X4.0813 Y16.0972
G01 X4.1173 Y16.0730
G01 X4.1558 Y16.0529
G01 X4.1962 Y16.0372
G01 X4.2382 Y16.0260
G01 X4.2811 Y16.0197
G01 X4.3245 Y16.0181
G01 X4.3677 Y16.0213
G01 X4.4104 Y16.0293
G01 X4.4519 Y16.0421
G01 X4.4917 Y16.0593
G01 X4.5293 Y16.0809
G01 X4.5644 Y16.1065
G01 X4.5963 Y16.1358
G01 X4.6248 Y16.1686
G01 X4.6718 Y16.2260
G01 X4.6912 Y16.2483
G01 X4.7110 Y16.2697
G01 X4.7318 Y16.2912
G01 X4.7747 Y16.3318
G01 X4.8242 Y16.3748
G01 X4.8656 Y16.4069
G01 X4.9193 Y16.4444
G01 X4.9693 Y16.4757
G01 X4.9948 Y16.4903
G01 X5.0475 Y16.5182
G01 X5.1045 Y16.5447
G01 X5.1868 Y16.5774
G01 X5.2467 Y16.5963
G01 X5.3009 Y16.6111
G01 X5.3924 Y16.6291
G01 X5.4522 Y16.6375
G01 X5.5123 Y16.6427
G01 X5.5720 Y16.6450
G01 X5.6324 Y16.6442
G01 X5.6627 Y16.6427
G01 X5.6925 Y16.6405
G01 X5.7529 Y16.6336
G01 X5.8114 Y16.6240
G01 X5.8741 Y16.6111
G01 X5.8984 Y16.6047
G01 X5.9283 Y16.5963
G01 X5.9882 Y16.5774
G01 X6.0722 Y16.5439
G01 X6.1275 Y16.5182
G01 X6.1802 Y16.4903
G01 X6.2057 Y16.4757
G01 X6.2557 Y16.4444
G01 X6.3070 Y16.4086
G01 X6.3531 Y16.3728
G01 X6.4003 Y16.3318
G01 X6.4432 Y16.2912
G01 X6.4838 Y16.2483
G01 X6.5032 Y16.2260
G01 X6.5432 Y16.1774
G01 X6.5585 Y16.1570
G01 X6.5883 Y16.1254
G01 X6.6213 Y16.0972
G01 X6.6573 Y16.0730
G01 X6.6958 Y16.0529
G01 X6.7362 Y16.0372
G01 X6.7782 Y16.0260
G01 X6.8211 Y16.0197
G01 X6.8645 Y16.0181
G01 X6.9077 Y16.0213
G01 X6.9504 Y16.0293
G01 X6.9919 Y16.0421
G01 X7.0317 Y16.0593
G01 X7.0693 Y16.0809
G01 X7.1044 Y16.1065
G01 X7.1363 Y16.1358
G01 X7.1648 Y16.1686
G01 X7.1902 Y16.2003
G01 X7.2231 Y16.2392
G01 X7.2510 Y16.2759
G01 X7.2743 Y16.3155
G01 X7.2928 Y16.3577
G01 X7.3062 Y16.4017
G01 X7.3143 Y16.4470
G01 X7.3170 Y16.4930
G01 X7.3170 Y19.9320
G01 X7.3145 Y19.9757
G01 X7.3072 Y20.0188
G01 X7.2951 Y20.0608
G01 X7.2784 Y20.1012
G01 X7.2572 Y20.1395
G01 X7.2319 Y20.1752
G01 X7.2028 Y20.2078
G01 X7.1638 Y20.2436
G01 X7.1410 Y20.2620
G01 X7.1213 Y20.2797
G01 X7.0734 Y20.3252
G01 X7.0550 Y20.3435
G01 X7.0137 Y20.3896
G01 X6.9942 Y20.4127
G01 X6.9601 Y20.4566
G01 X6.9226 Y20.5103
G01 X6.8900 Y20.5624
G01 X6.8756 Y20.5870
G01 X6.8498 Y20.6365
G01 X6.8223 Y20.6947
G01 X6.7988 Y20.7527
G01 X6.7896 Y20.7776
G01 X6.7707 Y20.8367
G01 X6.7626 Y20.8654
G01 X6.7490 Y20.9205
G01 X6.7333 Y21.0128
G01 X6.7265 Y21.0734
G01 X6.7228 Y21.1326
G01 X6.7220 Y21.1931
G01 X6.7243 Y21.2524
G01 X6.7296 Y21.3134
G01 X6.7379 Y21.3727
G01 X6.7490 Y21.4355
G01 X6.7547 Y21.4596
G01 X6.7707 Y21.5184
G01 X6.7896 Y21.5784
G01 X6.7988 Y21.6033
G01 X6.8223 Y21.6613
G01 X6.8498 Y21.7195
G01 X6.8756 Y21.7690
G01 X6.8900 Y21.7936
G01 X6.9226 Y21.8457
G01 X6.9601 Y21.8994
G01 X6.9759 Y21.9205
G01 X7.0137 Y21.9664
G01 X7.0550 Y22.0117
G01 X7.0758 Y22.0332
G01 X7.1213 Y22.0763
G01 X7.1410 Y22.0940
G01 X7.1984 Y22.1402
G01 X7.2318 Y22.1693
G01 X7.2617 Y22.2021
G01 X7.2876 Y22.2380
G01 X7.3093 Y22.2767
G01 X7.3265 Y22.3175
G01 X7.3390 Y22.3601
G01 X7.3465 Y22.4037
G01 X7.3490 Y22.4480
G01 X7.3465 Y22.4923
G01 X7.3390 Y22.5359
G01 X7.3265 Y22.5785
G01 X7.3093 Y22.6193
G01 X7.2876 Y22.6580
G01 X7.2617 Y22.6939
G01 X7.2318 Y22.7267
G01 X7.1984 Y22.7558
G01 X7.1410 Y22.8020
G01 X7.0973 Y22.8420
G01 X7.0550 Y22.8835
G01 X7.0137 Y22.9296
G01 X6.9942 Y22.9527
G01 X6.9601 Y22.9966
G01 X6.9226 Y23.0503
G01 X6.8900 Y23.1024
G01 X6.8629 Y23.1503
G01 X6.8223 Y23.2347
G01 X6.7988 Y23.2927
G01 X6.7896 Y23.3176
G01 X6.7707 Y23.3767
G01 X6.7626 Y23.4054
G01 X6.7490 Y23.4605
G01 X6.7379 Y23.5233
G01 X6.7296 Y23.5826
G01 X6.7243 Y23.6427
G01 X6.7228 Y23.6726
G01 X6.7220 Y23.7029
G01 X6.7228 Y23.7631
G01 X6.7265 Y23.8230
G01 X6.7333 Y23.8832
G01 X6.7490 Y23.9755
G01 X6.7623 Y24.0293
G01 X6.7896 Y24.1184
G01 X6.7988 Y24.1433
G01 X6.8223 Y24.2013
G01 X6.8498 Y24.2595
G01 X6.8756 Y24.3090
G01 X6.8900 Y24.3336
G01 X6.9226 Y24.3857
G01 X6.9601 Y24.4394
G01 X6.9759 Y24.4605
G01 X7.0137 Y24.5064
G01 X7.0550 Y24.5517
G01 X7.0758 Y24.5732
G01 X7.0973 Y24.5940
G01 X7.1410 Y24.6340
G01 X7.2120 Y24.6906
G01 X7.2667 Y24.7287
G01 X7.2872 Y24.7424
G01 X7.3722 Y24.7911
G01 X7.4108 Y24.8159
G01 X7.4462 Y24.8450
G01 X7.4779 Y24.8781
G01 X7.5055 Y24.9147
G01 X7.5286 Y24.9542
G01 X7.5470 Y24.9962
G01 X7.5603 Y25.0401
G01 X7.5683 Y25.0852
G01 X7.5710 Y25.1310
G01 X7.5710 Y26.9510
G01 X7.5684 Y26.9961
G01 X7.5606 Y27.0405
G01 X7.5477 Y27.0838
G01 X7.5299 Y27.1252
G01 X7.5074 Y27.1644
G01 X7.4681 Y27.2176
G01 X7.4306 Y27.2713
G01 X7.3993 Y27.3213
G01 X7.3847 Y27.3468
G01 X7.3568 Y27.3995
G01 X7.3303 Y27.4565
G01 X7.2976 Y27.5388
G01 X7.2787 Y27.5987
G01 X7.2627 Y27.6575
G01 X7.2572 Y27.6813
G01 X7.2459 Y27.7444
G01 X7.2413 Y27.7747
G01 X7.2345 Y27.8340
G01 X7.2323 Y27.8643
G01 X7.2300 Y27.9240
G01 X7.2308 Y27.9844
G01 X7.2345 Y28.0445
G01 X7.2414 Y28.1049
G01 X7.2459 Y28.1346
G01 X7.2572 Y28.1977
G01 X7.2627 Y28.2215
G01 X7.2787 Y28.2803
G01 X7.2976 Y28.3402
G01 X7.3061 Y28.3627
G01 X7.3311 Y28.4242
G01 X7.3435 Y28.4513
G01 X7.3568 Y28.4795
G01 X7.3847 Y28.5322
G01 X7.3993 Y28.5577
G01 X7.4306 Y28.6077
G01 X7.4664 Y28.6590
G01 X7.4839 Y28.6816
G01 X7.5022 Y28.7051
G01 X7.5432 Y28.7523
G01 X7.5838 Y28.7952
G01 X7.6267 Y28.8358
G01 X7.6490 Y28.8552
G01 X7.6747 Y28.8768
G01 X7.7200 Y28.9126
G01 X7.7987 Y28.9657
G01 X7.8213 Y28.9797
G01 X7.8742 Y29.0092
G01 X7.8995 Y29.0222
G01 X7.9565 Y29.0487
G01 X8.0137 Y29.0722
G01 X8.0372 Y29.0809
G01 X8.0987 Y29.1003
G01 X8.1286 Y29.1087
G01 X8.1529 Y29.1151
G01 X8.2148 Y29.1278
G01 X8.2755 Y29.1378
G01 X8.3042 Y29.1415
G01 X8.3635 Y29.1467
G01 X8.4249 Y29.1490
G01 X9.3541 Y29.1490
G01 X9.4147 Y29.1467
G01 X9.4445 Y29.1445
G01 X9.5042 Y29.1377
G01 X9.5633 Y29.1278
G01 X9.6261 Y29.1151
G01 X9.6803 Y29.1003
G01 X9.7402 Y29.0814
G01 X9.7964 Y29.0596
G01 X9.8225 Y29.0487
G01 X9.8513 Y29.0355
G01 X9.8795 Y29.0222
G01 X9.9048 Y29.0092
G01 X9.9577 Y28.9797
G01 X9.9803 Y28.9657
G01 X10.0590 Y28.9126
G01 X10.1043 Y28.8768
G01 X10.1523 Y28.8358
G01 X10.1952 Y28.7952
G01 X10.2160 Y28.7737
G01 X10.2358 Y28.7523
G01 X10.2768 Y28.7051
G01 X10.3126 Y28.6590
G01 X10.3484 Y28.6077
G01 X10.3636 Y28.5838
G01 X10.3797 Y28.5577
G01 X10.4092 Y28.5048
G01 X10.4222 Y28.4795
G01 X10.4479 Y28.4242
G01 X10.4729 Y28.3627
G01 X10.4814 Y28.3402
G01 X10.5003 Y28.2803
G01 X10.5151 Y28.2261
G01 X10.5331 Y28.1346
G01 X10.5415 Y28.0739
G01 X10.5467 Y28.0147
G01 X10.5490 Y27.9541
G01 X10.5482 Y27.8947
G01 X10.5445 Y27.8340
G01 X10.5377 Y27.7747
G01 X10.5280 Y27.7156
G01 X10.5151 Y27.6529
G01 X10.5003 Y27.5987
G01 X10.4814 Y27.5388
G01 X10.4596 Y27.4826
G01 X10.4487 Y27.4565
G01 X10.4355 Y27.4277
G01 X10.4222 Y27.3995
G01 X10.4092 Y27.3742
G01 X10.3797 Y27.3213
G01 X10.3484 Y27.2713
G01 X10.3109 Y27.2176
G01 X10.2788 Y27.1762
G01 X10.2358 Y27.1267
G01 X10.1952 Y27.0838
G01 X10.1523 Y27.0432
G01 X10.1043 Y27.0022
G01 X10.0590 Y26.9664
G01 X10.0077 Y26.9306
G01 X9.9577 Y26.8993
G01 X9.9048 Y26.8698
G01 X9.8513 Y26.8427
G01 X9.7964 Y26.8194
G01 X9.7402 Y26.7976
G01 X9.6803 Y26.7787
G01 X9.6215 Y26.7627
G01 X9.5633 Y26.7502
G01 X9.4900 Y26.7372
G01 X9.4484 Y26.7248
G01 X9.4085 Y26.7078
G01 X9.3707 Y26.6865
G01 X9.3356 Y26.6611
G01 X9.3034 Y26.6320
G01 X9.2747 Y26.5994
G01 X9.2498 Y26.5639
G01 X9.2290 Y26.5259
G01 X9.2125 Y26.4858
G01 X9.2006 Y26.4441
G01 X9.1934 Y26.4013
G01 X9.1910 Y26.3580
G01 X9.1910 Y25.1310
G01 X9.1932 Y25.0893
G01 X9.1999 Y25.0481
G01 X9.2110 Y25.0078
G01 X9.2263 Y24.9689
G01 X9.2456 Y24.9319
G01 X9.2689 Y24.8972
G01 X9.2956 Y24.8652
G01 X9.3257 Y24.8362
G01 X9.3587 Y24.8106
G01 X9.3942 Y24.7886
G01 X9.4239 Y24.7725
G01 X9.4758 Y24.7424
G01 X9.4963 Y24.7287
G01 X9.5510 Y24.6906
G01 X9.6220 Y24.6340
G01 X9.6657 Y24.5940
G01 X9.6872 Y24.5732
G01 X9.7301 Y24.5279
G01 X9.7688 Y24.4833
G01 X9.8029 Y24.4394
G01 X9.8404 Y24.3857
G01 X9.8730 Y24.3336
G01 X9.8874 Y24.3090
G01 X9.9132 Y24.2595
G01 X9.9407 Y24.2013
G01 X9.9642 Y24.1433
G01 X9.9734 Y24.1184
G01 X9.9923 Y24.0584
G01 X10.0071 Y24.0044
G01 X10.0198 Y23.9432
G01 X10.0251 Y23.9127
G01 X10.0334 Y23.8534
G01 X10.0365 Y23.8230
G01 X10.0402 Y23.7631
G01 X10.0410 Y23.7029
G01 X10.0402 Y23.6726
G01 X10.0387 Y23.6427
G01 X10.0334 Y23.5826
G01 X10.0297 Y23.5528
G01 X10.0198 Y23.4928
G01 X10.0071 Y23.4316
G01 X10.0004 Y23.4054
G01 X9.9923 Y23.3767
G01 X9.9734 Y23.3176
G01 X9.9642 Y23.2927
G01 X9.9407 Y23.2347
G01 X9.9001 Y23.1503
G01 X9.8730 Y23.1024
G01 X9.8404 Y23.0503
G01 X9.8029 Y22.9966
G01 X9.7688 Y22.9527
G01 X9.7493 Y22.9296
G01 X9.7080 Y22.8835
G01 X9.6657 Y22.8420
G01 X9.6220 Y22.8020
G01 X9.5646 Y22.7558
G01 X9.5312 Y22.7267
G01 X9.5013 Y22.6939
G01 X9.4754 Y22.6580
G01 X9.4537 Y22.6193
G01 X9.4365 Y22.5785
G01 X9.4240 Y22.5359
G01 X9.4165 Y22.4923
G01 X9.4140 Y22.4480
G01 X9.4165 Y22.4037
G01 X9.4240 Y22.3601
G01 X9.4365 Y22.3175
G01 X9.4537 Y22.2767
G01 X9.4754 Y22.2380
G01 X9.5013 Y22.2021
G01 X9.5312 Y22.1693
G01 X9.5646 Y22.1402
G01 X9.6220 Y22.0940
G01 X9.6417 Y22.0763
G01 X9.6872 Y22.0332
G01 X9.7080 Y22.0117
G01 X9.7493 Y21.9664
G01 X9.7871 Y21.9205
G01 X9.8029 Y21.8994
G01 X9.8404 Y21.8457
G01 X9.8730 Y21.7936
G01 X9.8874 Y21.7690
G01 X9.9132 Y21.7195
G01 X9.9407 Y21.6613
G01 X9.9642 Y21.6033
G01 X9.9734 Y21.5784
G01 X9.9923 Y21.5184
G01 X10.0071 Y21.4644
G01 X10.0198 Y21.4032
G01 X10.0251 Y21.3727
G01 X10.0297 Y21.3432
G01 X10.0365 Y21.2830
G01 X10.0402 Y21.2231
G01 X10.0410 Y21.1629
G01 X10.0402 Y21.1326
G01 X10.0387 Y21.1027
G01 X10.0334 Y21.0426
G01 X10.0297 Y21.0128
G01 X10.0198 Y20.9528
G01 X10.0071 Y20.8916
G01 X10.0004 Y20.8654
G01 X9.9923 Y20.8367
G01 X9.9734 Y20.7776
G01 X9.9642 Y20.7527
G01 X9.9407 Y20.6947
G01 X9.9001 Y20.6103
G01 X9.8874 Y20.5870
G01 X9.8556 Y20.5342
G01 X9.8404 Y20.5103
G01 X9.8029 Y20.4566
G01 X9.7871 Y20.4355
G01 X9.7493 Y20.3896
G01 X9.7080 Y20.3435
G01 X9.6896 Y20.3252
G01 X9.6657 Y20.3020
G01 X9.6220 Y20.2620
G01 X9.5712 Y20.2210
G01 X9.5260 Y20.1871
G01 X9.4723 Y20.1513
G01 X9.4533 Y20.1395
G01 X9.3676 Y20.0930
G01 X9.2882 Y20.0576
G01 X9.2293 Y20.0355
G01 X9.2037 Y20.0270
G01 X9.1625 Y20.0106
G01 X9.1235 Y19.9897
G01 X9.0871 Y19.9645
G01 X9.0538 Y19.9354
G01 X9.0241 Y19.9026
G01 X8.9982 Y19.8667
G01 X8.9765 Y19.8281
G01 X8.9594 Y19.7873
G01 X8.9470 Y19.7448
G01 X8.9395 Y19.7012
G01 X8.9370 Y19.6570
G01 X8.9370 Y16.4930
G01 X8.9392 Y16.4514
G01 X8.9459 Y16.4102
G01 X8.9569 Y16.3700
G01 X8.9721 Y16.3313
G01 X8.9914 Y16.2943
G01 X9.0145 Y16.2596
G01 X9.0648 Y16.2003
G01 X9.0985 Y16.1570
G01 X9.1283 Y16.1254
G01 X9.1613 Y16.0972
G01 X9.1973 Y16.0730
G01 X9.2358 Y16.0529
G01 X9.2762 Y16.0372
G01 X9.3182 Y16.0260
G01 X9.3611 Y16.0197
G01 X9.4045 Y16.0181
G01 X9.4477 Y16.0213
G01 X9.4904 Y16.0293
G01 X9.5319 Y16.0421
G01 X9.5717 Y16.0593
G01 X9.6093 Y16.0809
G01 X9.6444 Y16.1065
G01 X9.6763 Y16.1358
G01 X9.7048 Y16.1686
G01 X9.7518 Y16.2260
G01 X9.7712 Y16.2483
G01 X9.7910 Y16.2697
G01 X9.8118 Y16.2912
G01 X9.8333 Y16.3120
G01 X9.8547 Y16.3318
G01 X9.8770 Y16.3512
G01 X9.8770 Y16.3237
G01 X9.8255 Y16.2765
G01 X9.7471 Y16.1899
G01 X9.6776 Y16.0961
G01 X9.6270 Y16.0126
G01 X9.6118 Y15.9847
G01 X9.5912 Y15.9788
G01 X9.5513 Y15.9626
G01 X9.5135 Y15.9421
G01 X9.4781 Y15.9175
G01 X9.4457 Y15.8892
G01 X9.4166 Y15.8575
G01 X9.3911 Y15.8228
G01 X9.3697 Y15.7854
G01 X9.3525 Y15.7460
G01 X9.3397 Y15.7049
G01 X9.3316 Y15.6626
G01 X9.3281 Y15.6197
G01 X9.3294 Y15.5767
G01 X9.3347 Y15.5107
G01 X9.3370 Y15.4501
G01 X9.3370 Y14.5209
G01 X9.3347 Y14.4595
G01 X9.3293 Y14.3924
G01 X9.3281 Y14.3494
G01 X9.3317 Y14.3066
G01 X9.3399 Y14.2644
G01 X9.3527 Y14.2234
G01 X9.3700 Y14.1840
G01 X9.3914 Y14.1468
G01 X9.4169 Y14.1121
G01 X9.4460 Y14.0805
G01 X9.4784 Y14.0523
G01 X9.5137 Y14.0278
G01 X9.5515 Y14.0073
G01 X9.5913 Y13.9911
G01 X9.6118 Y13.9853
G01 X9.6270 Y13.9574
G01 X9.6776 Y13.8739
G01 X9.7471 Y13.7801
G01 X9.8255 Y13.6935
G01 X9.8770 Y13.6463
G01 X9.8770 Y13.3910
G01 X9.8795 Y13.3473
G01 X9.8868 Y13.3042
G01 X9.8989 Y13.2622
G01 X9.9156 Y13.2218
G01 X9.9368 Y13.1835
G01 X9.9621 Y13.1478
G01 X9.9912 Y13.1152
G01 X10.0238 Y13.0861
G01 X10.0595 Y13.0608
G01 X10.0978 Y13.0396
G01 X10.1382 Y13.0229
G01 X10.1802 Y13.0108
G01 X10.2233 Y13.0035
G01 X10.2670 Y13.0010
G01 X11.0670 Y13.0010
G01 X11.1107 Y13.0035
G01 X11.1538 Y13.0108
G01 X11.1958 Y13.0229
G01 X11.2362 Y13.0396
G01 X11.2745 Y13.0608
G01 X11.3102 Y13.0861
G01 X11.3428 Y13.1152
G01 X11.3719 Y13.1478
G01 X11.3972 Y13.1835
G01 X11.4184 Y13.2218
G01 X11.4265 Y13.2414
G01 X11.4346 Y13.2218
G01 X11.4558 Y13.1835
G01 X11.4811 Y13.1478
G01 X11.5102 Y13.1152
G01 X11.5428 Y13.0861
G01 X11.5785 Y13.0608
G01 X11.6168 Y13.0396
G01 X11.6572 Y13.0229
G01 X11.6992 Y13.0108
G01 X11.7423 Y13.0035
G01 X11.7860 Y13.0010
G01 X13.7850 Y13.0010
G01 X13.8287 Y13.0035
G01 X13.8718 Y13.0108
G01 X13.9138 Y13.0229
G01 X13.9542 Y13.0396
G01 X13.9925 Y13.0608
G01 X14.0282 Y13.0861
G01 X14.0608 Y13.1152
G01 X14.0899 Y13.1478
G01 X14.1152 Y13.1835
G01 X14.1364 Y13.2218
G01 X14.1531 Y13.2622
G01 X14.1652 Y13.3042
G01 X14.1725 Y13.3473
G01 X14.1750 Y13.3910
G01 X14.1750 Y16.7545
G01 X14.1763 Y16.8066
G01 X14.1808 Y16.8589
G01 X14.1845 Y16.8869
G01 X14.1895 Y16.9153
G01 X14.2005 Y16.9644
G01 X14.2172 Y17.0212
G01 X14.2336 Y17.0657
G01 X14.2454 Y17.0933
G01 X14.2746 Y17.1525
G01 X14.3064 Y17.2054
G01 X14.3321 Y17.2422
G01 X14.3488 Y17.2644
G01 X14.3704 Y17.2904
G01 X14.3933 Y17.3163
G01 X15.1947 Y18.1177
G01 X15.2466 Y18.1622
G01 X15.2680 Y18.1788
G01 X15.3056 Y18.2046
G01 X15.3323 Y18.2210
G01 X15.3618 Y18.2379
G01 X15.3967 Y18.2556
G01 X15.4315 Y18.2711
G01 X15.4678 Y18.2858
G01 X15.5298 Y18.3058
G01 X15.5686 Y18.3155
G01 X15.6099 Y18.3236
G01 X15.6374 Y18.3279
G01 X15.6751 Y18.3322
G01 X15.7179 Y18.3350
G01 X21.3570 Y18.3350
G01 X21.3986 Y18.3372
G01 X21.4398 Y18.3439
G01 X21.4800 Y18.3549
G01 X21.5187 Y18.3701
G01 X21.5557 Y18.3894
G01 X21.5904 Y18.4125
G01 X21.6497 Y18.4628
G01 X21.6930 Y18.4965
G01 X21.7246 Y18.5263
G01 X21.7528 Y18.5593
G01 X21.7770 Y18.5953
G01 X21.7971 Y18.6338
G01 X21.8128 Y18.6742
G01 X21.8240 Y18.7162
G01 X21.8303 Y18.7591
G01 X21.8319 Y18.8025
G01 X21.8287 Y18.8457
G01 X21.8207 Y18.8884
G01 X21.8079 Y18.9299
G01 X21.7907 Y18.9697
G01 X21.7691 Y19.0073
G01 X21.7435 Y19.0424
G01 X21.7142 Y19.0743
G01 X21.6814 Y19.1028
G01 X21.6240 Y19.1498
G01 X21.5828 Y19.1867
G01 X21.5390 Y19.2313
G01 X21.5167 Y19.2553
G01 X21.4969 Y19.2774
G01 X21.4805 Y19.2969
G01 X21.4392 Y19.3492
G01 X21.4263 Y19.3677
G01 X21.3883 Y19.4247
G01 X21.3743 Y19.4473
G01 X21.3448 Y19.5002
G01 X21.3196 Y19.5515
G01 X21.2935 Y19.6110
G01 X21.2835 Y19.6363
G01 X21.2625 Y19.6969
G01 X21.2466 Y19.7499
G01 X21.2321 Y19.8120
G01 X21.2260 Y19.8416
G01 X21.2163 Y19.8998
G01 X21.2095 Y19.9600
G01 X21.2073 Y19.9903
G01 X21.2050 Y20.0500
G01 X21.2050 Y20.0801
G01 X21.2058 Y20.1104
G01 X21.2095 Y20.1705
G01 X21.2164 Y20.2317
G01 X21.2260 Y20.2894
G01 X21.2321 Y20.3190
G01 X21.2466 Y20.3811
G01 X21.2625 Y20.4341
G01 X21.2835 Y20.4947
G01 X21.3054 Y20.5475
G01 X21.3328 Y20.6065
G01 X21.3597 Y20.6582
G01 X21.3883 Y20.7063
G01 X21.4247 Y20.7610
G01 X21.4391 Y20.7810
G01 X21.4805 Y20.8341
G01 X21.4969 Y20.8536
G01 X21.5390 Y20.8997
G01 X21.5828 Y20.9443
G01 X21.6017 Y20.9618
G01 X21.6497 Y21.0028
G01 X21.6930 Y21.0365
G01 X21.7246 Y21.0663
G01 X21.7528 Y21.0993
G01 X21.7770 Y21.1353
G01 X21.7971 Y21.1738
G01 X21.8128 Y21.2142
G01 X21.8240 Y21.2562
G01 X21.8303 Y21.2991
G01 X21.8319 Y21.3425
G01 X21.8287 Y21.3857
G01 X21.8207 Y21.4284
G01 X21.8079 Y21.4699
G01 X21.7907 Y21.5097
G01 X21.7691 Y21.5473
G01 X21.7435 Y21.5824
G01 X21.7142 Y21.6143
G01 X21.6814 Y21.6428
G01 X21.6240 Y21.6898
G01 X21.5828 Y21.7267
G01 X21.5390 Y21.7713
G01 X21.4969 Y21.8174
G01 X21.4392 Y21.8892
G01 X21.3883 Y21.9647
G01 X21.3597 Y22.0128
G01 X21.3318 Y22.0655
G01 X21.3196 Y22.0915
G01 X21.2935 Y22.1510
G01 X21.2835 Y22.1763
G01 X21.2735 Y22.2048
G01 X21.2537 Y22.2647
G01 X21.2466 Y22.2899
G01 X21.2321 Y22.3520
G01 X21.2207 Y22.4111
G01 X21.2126 Y22.4696
G01 X21.2073 Y22.5303
G01 X21.2050 Y22.5900
G01 X21.2050 Y22.6201
G01 X21.2058 Y22.6504
G01 X21.2095 Y22.7105
G01 X21.2164 Y22.7717
G01 X21.2260 Y22.8294
G01 X21.2321 Y22.8590
G01 X21.2466 Y22.9211
G01 X21.2625 Y22.9741
G01 X21.2835 Y23.0347
G01 X21.3054 Y23.0875
G01 X21.3328 Y23.1465
G01 X21.3597 Y23.1982
G01 X21.3883 Y23.2463
G01 X21.4247 Y23.3010
G01 X21.4391 Y23.3210
G01 X21.4805 Y23.3741
G01 X21.4969 Y23.3936
G01 X21.5390 Y23.4397
G01 X21.5828 Y23.4843
G01 X21.6017 Y23.5018
G01 X21.6497 Y23.5428
G01 X21.6930 Y23.5765
G01 X21.7246 Y23.6063
G01 X21.7528 Y23.6393
G01 X21.7770 Y23.6753
G01 X21.7971 Y23.7138
G01 X21.8128 Y23.7542
G01 X21.8240 Y23.7962
G01 X21.8303 Y23.8391
G01 X21.8319 Y23.8825
G01 X21.8287 Y23.9257
G01 X21.8207 Y23.9684
G01 X21.8079 Y24.0099
G01 X21.7907 Y24.0497
G01 X21.7691 Y24.0873
G01 X21.7435 Y24.1224
G01 X21.7142 Y24.1543
G01 X21.6814 Y24.1828
G01 X21.6240 Y24.2298
G01 X21.5828 Y24.2667
G01 X21.5390 Y24.3113
G01 X21.4969 Y24.3574
G01 X21.4392 Y24.4292
G01 X21.3883 Y24.5047
G01 X21.3597 Y24.5528
G01 X21.3318 Y24.6055
G01 X21.3196 Y24.6315
G01 X21.2935 Y24.6910
G01 X21.2835 Y24.7163
G01 X21.2735 Y24.7448
G01 X21.2537 Y24.8047
G01 X21.2466 Y24.8299
G01 X21.2321 Y24.8920
G01 X21.2207 Y24.9511
G01 X21.2126 Y25.0096
G01 X21.2073 Y25.0703
G01 X21.2050 Y25.1300
G01 X21.2050 Y25.1601
G01 X21.2058 Y25.1904
G01 X21.2095 Y25.2505
G01 X21.2164 Y25.3117
G01 X21.2260 Y25.3694
G01 X21.2321 Y25.3990
G01 X21.2466 Y25.4611
G01 X21.2625 Y25.5141
G01 X21.2835 Y25.5747
G01 X21.3054 Y25.6275
G01 X21.3328 Y25.6865
G01 X21.3597 Y25.7382
G01 X21.3883 Y25.7863
G01 X21.4247 Y25.8410
G01 X21.4391 Y25.8610
G01 X21.4805 Y25.9141
G01 X21.4969 Y25.9336
G01 X21.5390 Y25.9797
G01 X21.5828 Y26.0243
G01 X21.6017 Y26.0418
G01 X21.6497 Y26.0828
G01 X21.6930 Y26.1165
G01 X21.7246 Y26.1463
G01 X21.7528 Y26.1793
G01 X21.7770 Y26.2153
G01 X21.7971 Y26.2538
G01 X21.8128 Y26.2942
G01 X21.8240 Y26.3362
G01 X21.8303 Y26.3791
G01 X21.8319 Y26.4225
G01 X21.8287 Y26.4657
G01 X21.8207 Y26.5084
G01 X21.8079 Y26.5499
G01 X21.7907 Y26.5897
G01 X21.7691 Y26.6273
G01 X21.7435 Y26.6624
G01 X21.7142 Y26.6943
G01 X21.6814 Y26.7228
G01 X21.6240 Y26.7698
G01 X21.5828 Y26.8067
G01 X21.5390 Y26.8513
G01 X21.4969 Y26.8974
G01 X21.4392 Y26.9692
G01 X21.3883 Y27.0447
G01 X21.3597 Y27.0928
G01 X21.3318 Y27.1455
G01 X21.3196 Y27.1715
G01 X21.2935 Y27.2310
G01 X21.2835 Y27.2563
G01 X21.2735 Y27.2848
G01 X21.2537 Y27.3447
G01 X21.2466 Y27.3699
G01 X21.2321 Y27.4320
G01 X21.2207 Y27.4911
G01 X21.2126 Y27.5496
G01 X21.2073 Y27.6103
G01 X21.2050 Y27.6700
G01 X21.2050 Y27.7001
G01 X21.2058 Y27.7304
G01 X21.2095 Y27.7905
G01 X21.2164 Y27.8517
G01 X21.2260 Y27.9094
G01 X21.2321 Y27.9390
G01 X21.2466 Y28.0011
G01 X21.2625 Y28.0541
G01 X21.2835 Y28.1147
G01 X21.3054 Y28.1675
G01 X21.3328 Y28.2265
G01 X21.3597 Y28.2782
G01 X21.3883 Y28.3263
G01 X21.4247 Y28.3810
G01 X21.4391 Y28.4010
G01 X21.4805 Y28.4541
G01 X21.4969 Y28.4736
G01 X21.5390 Y28.5197
G01 X21.5828 Y28.5643
G01 X21.6017 Y28.5818
G01 X21.6497 Y28.6228
G01 X21.6930 Y28.6565
G01 X21.7246 Y28.6863
G01 X21.7528 Y28.7193
G01 X21.7770 Y28.7553
G01 X21.7971 Y28.7938
G01 X21.8128 Y28.8342
G01 X21.8240 Y28.8762
G01 X21.8303 Y28.9191
G01 X21.8319 Y28.9625
G01 X21.8287 Y29.0057
G01 X21.8207 Y29.0484
G01 X21.8079 Y29.0899
G01 X21.7907 Y29.1297
G01 X21.7691 Y29.1673
G01 X21.7435 Y29.2024
G01 X21.7142 Y29.2343
G01 X21.6814 Y29.2628
G01 X21.6240 Y29.3098
G01 X21.5828 Y29.3467
G01 X21.5390 Y29.3913
G01 X21.4969 Y29.4374
G01 X21.4392 Y29.5092
G01 X21.3883 Y29.5847
G01 X21.3597 Y29.6328
G01 X21.3318 Y29.6855
G01 X21.3196 Y29.7115
G01 X21.2935 Y29.7710
G01 X21.2835 Y29.7963
G01 X21.2735 Y29.8248
G01 X21.2537 Y29.8847
G01 X21.2466 Y29.9099
G01 X21.2321 Y29.9720
G01 X21.2207 Y30.0311
G01 X21.2126 Y30.0896
G01 X21.2073 Y30.1503
G01 X21.2050 Y30.2100
G01 X21.2050 Y30.2401
G01 X21.2058 Y30.2704
G01 X21.2095 Y30.3305
G01 X21.2164 Y30.3917
G01 X21.2260 Y30.4494
G01 X21.2321 Y30.4790
G01 X21.2466 Y30.5411
G01 X21.2625 Y30.5941
G01 X21.2835 Y30.6547
G01 X21.3054 Y30.7075
G01 X21.3328 Y30.7665
G01 X21.3459 Y30.7927
G01 X21.3743 Y30.8437
G01 X21.3883 Y30.8663
G01 X21.4247 Y30.9210
G01 X21.4391 Y30.9410
G01 X21.4805 Y30.9941
G01 X21.4969 Y31.0136
G01 X21.5390 Y31.0597
G01 X21.5828 Y31.1043
G01 X21.6017 Y31.1218
G01 X21.6497 Y31.1628
G01 X21.6930 Y31.1965
G01 X21.7246 Y31.2263
G01 X21.7528 Y31.2593
G01 X21.7770 Y31.2953
G01 X21.7971 Y31.3338
G01 X21.8128 Y31.3742
G01 X21.8240 Y31.4162
G01 X21.8303 Y31.4591
G01 X21.8319 Y31.5025
G01 X21.8287 Y31.5457
G01 X21.8207 Y31.5884
G01 X21.8079 Y31.6299
G01 X21.7907 Y31.6697
G01 X21.7691 Y31.7073
G01 X21.7435 Y31.7424
G01 X21.7142 Y31.7743
G01 X21.6814 Y31.8028
G01 X21.6497 Y31.8282
G01 X21.6108 Y31.8611
G01 X21.5741 Y31.8890
G01 X21.5345 Y31.9123
G01 X21.4923 Y31.9308
G01 X21.4483 Y31.9442
G01 X21.4030 Y31.9523
G01 X21.3570 Y31.9550
G01 X19.3920 Y31.9550
G01 X19.3465 Y31.9523
G01 X19.3015 Y31.9444
G01 X19.2579 Y31.9312
G01 X19.2160 Y31.9130
G01 X19.1766 Y31.8901
G01 X19.1401 Y31.8627
G01 X19.0936 Y31.8219
G01 X19.0476 Y31.7849
G01 X19.0250 Y31.7674
G01 X18.9703 Y31.7293
G01 X18.9498 Y31.7156
G01 X18.8961 Y31.6845
G01 X18.8716 Y31.6708
G01 X18.8173 Y31.6437
G01 X18.7607 Y31.6189
G01 X18.7035 Y31.5975
G01 X18.6741 Y31.5875
G01 X18.6496 Y31.5797
G01 X18.5887 Y31.5640
G01 X18.5302 Y31.5512
G01 X18.4695 Y31.5412
G01 X18.4408 Y31.5375
G01 X18.3815 Y31.5323
G01 X18.3201 Y31.5300
G01 X17.3909 Y31.5300
G01 X17.3303 Y31.5323
G01 X17.2711 Y31.5375
G01 X17.2121 Y31.5457
G01 X17.1511 Y31.5573
G01 X17.1235 Y31.5637
G01 X17.0602 Y31.5801
G01 X17.0092 Y31.5970
G01 X16.9495 Y31.6196
G01 X16.8946 Y31.6436
G01 X16.8675 Y31.6568
G01 X16.8150 Y31.6846
G01 X16.7592 Y31.7170
G01 X16.6860 Y31.7674
G01 X16.6658 Y31.7830
G01 X16.6150 Y31.8240
G01 X16.5713 Y31.8640
G01 X16.5498 Y31.8848
G01 X16.5290 Y31.9063
G01 X16.4877 Y31.9516
G01 X16.4707 Y31.9718
G01 X16.4319 Y32.0217
G01 X16.3966 Y32.0723
G01 X16.3640 Y32.1244
G01 X16.3369 Y32.1723
G01 X16.3238 Y32.1985
G01 X16.2963 Y32.2567
G01 X16.2745 Y32.3105
G01 X16.2535 Y32.3710
G01 X16.2363 Y32.4287
G01 X16.2299 Y32.4536
G01 X16.2238 Y32.4824
G01 X16.2119 Y32.5453
G01 X16.2073 Y32.5748
G01 X16.2005 Y32.6350
G01 X16.1968 Y32.6949
G01 X16.1960 Y32.7249
G01 X16.1968 Y32.7854
G01 X16.2005 Y32.8446
G01 X16.2073 Y32.9052
G01 X16.2172 Y32.9652
G01 X16.2299 Y33.0264
G01 X16.2447 Y33.0804
G01 X16.2535 Y33.1090
G01 X16.2745 Y33.1695
G01 X16.2963 Y33.2233
G01 X16.3238 Y33.2815
G01 X16.3496 Y33.3310
G01 X16.3640 Y33.3556
G01 X16.3966 Y33.4077
G01 X16.4319 Y33.4583
G01 X16.4707 Y33.5082
G01 X16.4877 Y33.5284
G01 X16.5290 Y33.5745
G01 X16.5713 Y33.6160
G01 X16.6150 Y33.6560
G01 X16.6724 Y33.7022
G01 X16.7058 Y33.7313
G01 X16.7357 Y33.7641
G01 X16.7616 Y33.8000
G01 X16.7833 Y33.8387
G01 X16.8005 Y33.8795
G01 X16.8130 Y33.9221
G01 X16.8205 Y33.9657
G01 X16.8230 Y34.0100
G01 X16.8205 Y34.0543
G01 X16.8130 Y34.0979
G01 X16.8005 Y34.1405
G01 X16.7833 Y34.1813
G01 X16.7616 Y34.2200
G01 X16.7357 Y34.2559
G01 X16.7058 Y34.2887
G01 X16.6724 Y34.3178
G01 X16.6150 Y34.3640
G01 X16.5953 Y34.3817
G01 X16.5498 Y34.4248
G01 X16.5290 Y34.4463
G01 X16.4891 Y34.4900
G01 X16.5173 Y34.4900
G01 X16.5645 Y34.4385
G01 X16.6511 Y34.3601
G01 X16.7449 Y34.2906
G01 X16.8284 Y34.2400
G01 X16.8560 Y34.2250
G01 X16.8629 Y34.2011
G01 X16.8797 Y34.1606
G01 X16.9009 Y34.1223
G01 X16.9262 Y34.0866
G01 X16.9554 Y34.0540
G01 X16.9881 Y34.0249
G01 X17.0238 Y33.9996
G01 X17.0622 Y33.9784
G01 X17.1026 Y33.9617
G01 X17.1447 Y33.9497
G01 X17.1879 Y33.9424
G01 X17.2316 Y33.9400
G01 X17.2753 Y33.9425
G01 X17.3027 Y33.9457
G01 X17.3303 Y33.9477
G01 X17.3909 Y33.9500
G01 X18.3201 Y33.9500
G01 X18.3815 Y33.9477
G01 X18.4379 Y33.9424
G01 X18.4816 Y33.9400
G01 X18.5252 Y33.9425
G01 X18.5683 Y33.9499
G01 X18.6102 Y33.9620
G01 X18.6506 Y33.9788
G01 X18.6888 Y34.0000
G01 X18.7244 Y34.0253
G01 X18.7570 Y34.0544
G01 X18.7861 Y34.0870
G01 X18.8113 Y34.1227
G01 X18.8324 Y34.1609
G01 X18.8492 Y34.2013
G01 X18.8560 Y34.2250
G01 X18.8836 Y34.2400
G01 X18.9671 Y34.2906
G01 X19.0609 Y34.3601
G01 X19.1475 Y34.4385
G01 X19.1947 Y34.4900
G01 X19.2219 Y34.4900
G01 X19.1820 Y34.4463
G01 X19.1612 Y34.4248
G01 X19.1157 Y34.3817
G01 X19.0936 Y34.3619
G01 X19.0741 Y34.3455
G01 X19.0386 Y34.3178
G01 X19.0052 Y34.2887
G01 X18.9753 Y34.2559
G01 X18.9494 Y34.2200
G01 X18.9277 Y34.1813
G01 X18.9105 Y34.1405
G01 X18.8980 Y34.0979
G01 X18.8905 Y34.0543
G01 X18.8880 Y34.0100
G01 X18.8905 Y33.9657
G01 X18.8980 Y33.9221
G01 X18.9105 Y33.8795
G01 X18.9277 Y33.8387
G01 X18.9494 Y33.8000
G01 X18.9753 Y33.7641
G01 X19.0052 Y33.7313
G01 X19.0386 Y33.7022
G01 X19.1154 Y33.6420
G01 X19.1553 Y33.6184
G01 X19.1977 Y33.5996
G01 X19.2420 Y33.5860
G01 X19.2877 Y33.5778
G01 X19.3340 Y33.5750
G01 X21.3570 Y33.5750
G01 X21.3986 Y33.5772
G01 X21.4398 Y33.5839
G01 X21.4800 Y33.5949
G01 X21.5187 Y33.6101
G01 X21.5557 Y33.6294
G01 X21.5904 Y33.6525
G01 X21.6497 Y33.7028
G01 X21.6930 Y33.7365
G01 X21.7246 Y33.7663
G01 X21.7528 Y33.7993
G01 X21.7770 Y33.8353
G01 X21.7971 Y33.8738
G01 X21.8128 Y33.9142
G01 X21.8240 Y33.9562
G01 X21.8303 Y33.9991
G01 X21.8319 Y34.0425
G01 X21.8287 Y34.0857
G01 X21.8207 Y34.1284
G01 X21.8079 Y34.1699
G01 X21.7907 Y34.2097
G01 X21.7691 Y34.2473
G01 X21.7435 Y34.2824
G01 X21.7142 Y34.3143
G01 X21.6814 Y34.3428
G01 X21.6240 Y34.3898
G01 X21.5828 Y34.4267
G01 X21.5390 Y34.4713
G01 X21.4990 Y34.5150
G01 X21.5261 Y34.5150
G01 X21.5735 Y34.4635
G01 X21.6600 Y34.3850
G01 X21.7538 Y34.3155
G01 X21.8373 Y34.2649
G01 X21.8616 Y34.2516
G01 X21.8687 Y34.2267
G01 X21.8853 Y34.1865
G01 X21.9063 Y34.1483
G01 X21.9314 Y34.1127
G01 X21.9603 Y34.0802
G01 X21.9926 Y34.0510
G01 X22.0281 Y34.0257
G01 X22.0661 Y34.0045
G01 X22.1062 Y33.9876
G01 X22.1480 Y33.9753
G01 X22.1909 Y33.9677
G01 X22.2343 Y33.9650
G01 X22.2778 Y33.9671
G01 X22.3393 Y33.9727
G01 X22.4247 Y33.9760
G01 X23.2943 Y33.9760
G01 X23.3797 Y33.9727
G01 X23.4412 Y33.9671
G01 X23.4847 Y33.9650
G01 X23.5281 Y33.9677
G01 X23.5710 Y33.9753
G01 X23.6128 Y33.9876
G01 X23.6529 Y34.0045
G01 X23.6909 Y34.0257
G01 X23.7264 Y34.0510
G01 X23.7587 Y34.0802
G01 X23.7876 Y34.1127
G01 X23.8127 Y34.1483
G01 X23.8337 Y34.1865
G01 X23.8503 Y34.2267
G01 X23.8574 Y34.2516
G01 X23.8817 Y34.2649
G01 X23.9652 Y34.3155
G01 X24.0590 Y34.3850
G01 X24.1455 Y34.4635
G01 X24.1929 Y34.5150
G01 X24.2200 Y34.5150
G01 X24.1800 Y34.4713
G01 X24.1362 Y34.4267
G01 X24.0950 Y34.3898
G01 X24.0376 Y34.3428
G01 X24.0048 Y34.3143
G01 X23.9755 Y34.2824
G01 X23.9499 Y34.2473
G01 X23.9283 Y34.2097
G01 X23.9111 Y34.1699
G01 X23.8983 Y34.1284
G01 X23.8903 Y34.0857
G01 X23.8871 Y34.0425
G01 X23.8887 Y33.9991
G01 X23.8950 Y33.9562
G01 X23.9062 Y33.9142
G01 X23.9219 Y33.8738
G01 X23.9420 Y33.8353
G01 X23.9662 Y33.7993
G01 X23.9944 Y33.7663
G01 X24.0260 Y33.7365
G01 X24.0693 Y33.7028
G01 X24.1173 Y33.6618
G01 X24.1362 Y33.6443
G01 X24.1800 Y33.5997
G01 X24.2221 Y33.5536
G01 X24.2573 Y33.5099
G01 X24.2965 Y33.4577
G01 X24.3284 Y33.4098
G01 X24.3583 Y33.3582
G01 X24.3880 Y33.3026
G01 X24.4136 Y33.2475
G01 X24.4255 Y33.2200
G01 X24.4355 Y33.1947
G01 X24.4565 Y33.1341
G01 X24.4639 Y33.1108
G01 X24.4803 Y33.0475
G01 X24.4930 Y32.9894
G01 X24.5026 Y32.9317
G01 X24.5064 Y32.9005
G01 X24.5095 Y32.8705
G01 X24.5132 Y32.8104
G01 X24.5140 Y32.7500
G01 X24.5117 Y32.6903
G01 X24.5095 Y32.6600
G01 X24.5027 Y32.5998
G01 X24.4930 Y32.5416
G01 X24.4803 Y32.4835
G01 X24.4639 Y32.4202
G01 X24.4565 Y32.3969
G01 X24.4355 Y32.3363
G01 X24.4255 Y32.3110
G01 X24.3994 Y32.2515
G01 X24.3890 Y32.2294
G01 X24.3416 Y32.1436
G01 X24.3284 Y32.1212
G01 X24.2949 Y32.0710
G01 X24.2591 Y32.0234
G01 X24.2221 Y31.9774
G01 X24.1800 Y31.9313
G01 X24.1362 Y31.8867
G01 X24.0950 Y31.8498
G01 X24.0376 Y31.8028
G01 X24.0048 Y31.7743
G01 X23.9755 Y31.7424
G01 X23.9499 Y31.7073
G01 X23.9283 Y31.6697
G01 X23.9111 Y31.6299
G01 X23.8983 Y31.5884
G01 X23.8903 Y31.5457
G01 X23.8871 Y31.5025
G01 X23.8887 Y31.4591
G01 X23.8950 Y31.4162
G01 X23.9062 Y31.3742
G01 X23.9219 Y31.3338
G01 X23.9420 Y31.2953
G01 X23.9662 Y31.2593
G01 X23.9944 Y31.2263
G01 X24.0260 Y31.1965
G01 X24.0693 Y31.1628
G01 X24.1286 Y31.1125
G01 X24.1633 Y31.0894
G01 X24.2003 Y31.0701
G01 X24.2390 Y31.0549
G01 X24.2792 Y31.0439
G01 X24.3204 Y31.0372
G01 X24.3620 Y31.0350
G01 X25.4100 Y31.0350
G01 X25.4537 Y31.0375
G01 X25.4968 Y31.0448
G01 X25.5388 Y31.0569
G01 X25.5793 Y31.0736
G01 X25.6175 Y31.0948
G01 X25.6532 Y31.1201
G01 X25.6858 Y31.1493
G01 X28.3008 Y33.7653
G01 X28.3300 Y33.7979
G01 X28.3553 Y33.8336
G01 X28.3764 Y33.8718
G01 X28.3931 Y33.9122
G01 X28.4052 Y33.9542
G01 X28.4125 Y33.9973
G01 X28.4150 Y34.0410
G01 X28.4150 Y42.1810
G01 X28.4125 Y42.2247
G01 X28.4052 Y42.2678
G01 X28.3931 Y42.3098
G01 X28.3764 Y42.3502
G01 X28.3552 Y42.3885
G01 X28.3299 Y42.4242
G01 X28.3008 Y42.4568
G01 X28.2682 Y42.4859
G01 X28.2325 Y42.5112
G01 X28.1942 Y42.5324
G01 X28.1538 Y42.5491
G01 X28.1118 Y42.5612
G01 X28.0687 Y42.5685
G01 X28.0250 Y42.5710
G01 X27.7153 Y42.5710
G01 X27.6952 Y42.5720
G01 X27.6552 Y42.5770
G01 X27.6349 Y42.5811
G01 X27.6073 Y42.5884
G01 X27.5791 Y42.5978
G01 X27.5445 Y42.6128
G01 X27.5290 Y42.6208
G01 X27.5129 Y42.6299
G01 X27.4812 Y42.6511
G01 X27.4569 Y42.6710
G01 X27.4377 Y42.6889
G01 X27.4037 Y42.7270
G01 X27.3845 Y42.7527
G01 X27.3659 Y42.7843
G01 X27.3493 Y42.8175
G01 X27.3361 Y42.8522
G01 X27.3305 Y42.8701
G01 X27.3249 Y42.8919
G01 X27.3175 Y42.9398
G01 X27.3160 Y42.9605
G01 X27.3150 Y42.9907
G01 X27.3150 Y44.1713
G01 X27.3160 Y44.2015
G01 X27.3175 Y44.2212
G01 X27.3202 Y44.2422
G01 X27.3251 Y44.2711
G01 X27.3305 Y44.2919
G01 X27.3361 Y44.3098
G01 X27.3493 Y44.3445
G01 X27.3659 Y44.3777
G01 X27.3845 Y44.4093
G01 X27.4037 Y44.4350
G01 X27.4335 Y44.4690
G01 X27.4563 Y44.4905
G01 X27.4843 Y44.5129
G01 X27.5074 Y44.5285
G01 X27.5290 Y44.5412
G01 X27.5509 Y44.5521
G01 X27.5791 Y44.5642
G01 X27.6174 Y44.5763
G01 X27.6349 Y44.5809
G01 X27.6552 Y44.5850
G01 X27.6744 Y44.5879
G01 X27.7048 Y44.5909
G01 X27.7482 Y44.5978
G01 X27.7905 Y44.6094
G01 X27.8313 Y44.6258
G01 X27.8700 Y44.6466
G01 X27.9060 Y44.6716
G01 X27.9391 Y44.7006
G01 X27.9686 Y44.7330
G01 X27.9944 Y44.7686
G01 X28.0160 Y44.8069
G01 X28.0331 Y44.8473
G01 X28.0456 Y44.8894
G01 X28.0532 Y44.9326
G01 X28.0560 Y44.9765
G01 X28.0538 Y45.0203
G01 X28.0467 Y45.0637
G01 X28.0348 Y45.1059
G01 X28.0182 Y45.1466
G01 X27.9971 Y45.1851
G01 X27.9718 Y45.2210
G01 X27.9427 Y45.2539
G01 X27.9100 Y45.2832
G01 X27.8743 Y45.3087
G01 X27.8359 Y45.3301
G01 X27.7953 Y45.3469
G01 X27.7531 Y45.3591
G01 X27.7098 Y45.3665
G01 X27.6660 Y45.3690
G01 X25.4555 Y45.3690
G01 X25.4041 Y45.3702
G01 X25.3521 Y45.3748
G01 X25.3241 Y45.3785
G01 X25.2806 Y45.3867
G01 X25.2374 Y45.3968
G01 X25.1981 Y45.4084
G01 X25.1453 Y45.4276
G01 X25.1177 Y45.4394
G01 X25.0720 Y45.4612
G01 X25.0484 Y45.4742
G01 X25.0056 Y45.5004
G01 X24.9680 Y45.5262
G01 X24.9199 Y45.5646
G01 X24.8866 Y45.5949
G01 X24.8073 Y45.6747
G01 X24.7846 Y45.6999
G01 X24.7628 Y45.7266
G01 X24.7462 Y45.7480
G01 X24.7204 Y45.7856
G01 X24.6942 Y45.8284
G01 X24.6812 Y45.8520
G01 X24.6594 Y45.8977
G01 X24.6476 Y45.9253
G01 X24.6303 Y45.9723
G01 X24.6168 Y46.0174
G01 X24.6038 Y46.0739
G01 X24.5985 Y46.1041
G01 X24.5948 Y46.1321
G01 X24.5902 Y46.1841
G01 X24.5890 Y46.2355
G01 X24.5890 Y47.9985
G01 X24.5906 Y48.0455
G01 X24.5933 Y48.0862
G01 X24.5986 Y48.1253
G01 X24.6051 Y48.1640
G01 X24.6197 Y48.2248
G01 X24.6320 Y48.2646
G01 X24.6452 Y48.3015
G01 X24.6705 Y48.3594
G01 X24.6851 Y48.3996
G01 X24.6953 Y48.4411
G01 X24.7009 Y48.4835
G01 X24.7018 Y48.5263
G01 X24.6980 Y48.5689
G01 X24.6895 Y48.6109
G01 X24.6765 Y48.6516
G01 X24.6591 Y48.6907
G01 X24.6376 Y48.7277
G01 X24.6121 Y48.7621
G01 X24.5830 Y48.7934
G01 X24.5507 Y48.8214
G01 X24.5154 Y48.8457
G01 X24.4778 Y48.8660
G01 X24.4381 Y48.8820
G01 X24.3969 Y48.8936
G01 X24.3547 Y48.9007
G01 X24.3120 Y48.9030
G01 X0.0000 Y48.9030
G01 X-0.0437 Y48.9005
G01 X-0.0868 Y48.8932
G01 X-0.1288 Y48.8811
G01 X-0.1692 Y48.8644
G01 X-0.2075 Y48.8432
G01 X-0.2432 Y48.8179
G01 X-0.2758 Y48.7888
G01 X-0.3049 Y48.7562
G01 X-0.3302 Y48.7205
G01 X-0.3514 Y48.6822
G01 X-0.3681 Y48.6418
G01 X-0.3802 Y48.5998
G01 X-0.3875 Y48.5567
G01 X-0.3900 Y48.5130
G01 X-0.3900 Y16.1580
G01 X-0.3875 Y16.1138
G01 X-0.3800 Y16.0702
G01 X-0.3676 Y16.0278
G01 X-0.3505 Y15.9870
G01 X-0.3289 Y15.9484
G01 X-0.3030 Y15.9125
G01 X-0.2733 Y15.8798
G01 X-0.2400 Y15.8506
G01 X-0.2037 Y15.8254
G01 X-0.1647 Y15.8045
G01 X-0.1236 Y15.7881
G01 X-0.0809 Y15.7765
G01 X-0.0372 Y15.7698
G01 X0.0070 Y15.7681
G01 X0.0511 Y15.7714
G01 X0.0965 Y15.7801
G01 X0.1501 Y15.7887
G01 X0.1964 Y15.7933
G01 X0.2305 Y15.7950
G01 X1.6340 Y15.7950
G01 X1.6757 Y15.7972
G01 X1.7169 Y15.8039
G01 X1.7572 Y15.8150
G01 X1.7961 Y15.8303
G01 X1.8331 Y15.8496
G01 X1.8678 Y15.8729
G01 X1.8998 Y15.8996
G01 X1.9288 Y15.9297
G01 X1.9544 Y15.9627
G01 X1.9764 Y15.9982
G01 X1.9914 Y16.0257
G01 X2.0248 Y16.0819
G01 X2.0386 Y16.1037
G01 X2.0744 Y16.1550
G01 X2.1102 Y16.2003
G01 X2.1512 Y16.2483
G01 X2.1918 Y16.2912
G01 X2.2133 Y16.3120
G01 X2.2347 Y16.3318
G01 X2.2842 Y16.3748
G01 X2.3256 Y16.4069
G01 X2.3793 Y16.4444
G01 X2.4032 Y16.4596
G01 X2.4293 Y16.4757
G01 X2.4822 Y16.5052
G01 X2.5075 Y16.5182
G01 X2.5645 Y16.5447
G01 X2.6468 Y16.5774
G01 X2.7067 Y16.5963
G01 X2.7609 Y16.6111
G01 X2.8236 Y16.6240
G01 X2.8827 Y16.6337
G01 X2.9420 Y16.6405
G01 X2.9723 Y16.6427
G01 X3.0320 Y16.6450
G01 X3.0924 Y16.6442
G01 X3.1227 Y16.6427
G01 X3.1819 Y16.6375
G01 X3.2426 Y16.6291
G01 X3.3341 Y16.6111
G01 X3.3883 Y16.5963
G01 X3.4482 Y16.5774
G01 X3.5322 Y16.5439
G01 X3.5875 Y16.5182
G01 X3.6402 Y16.4903
G01 X3.6657 Y16.4757
G01 X3.7157 Y16.4444
G01 X3.7670 Y16.4086
G01 X3.8131 Y16.3728
G01 X3.8603 Y16.3318
G01 X3.9032 Y16.2912
G01 X3.9438 Y16.2483
G01 X3.9848 Y16.2003
G01 X4.0032 Y16.1774
G00 Z2.0000
G00 X1.0430 Y14.1950
G01 F300.00
G01 Z-0.1000
G01 F300.00
G01 X1.9067 Y14.1950
G01 X1.9142 Y14.1714
G01 X1.9407 Y14.0975
G01 X1.9553 Y14.0621
G01 X1.9975 Y13.9740
G01 X2.0473 Y13.8900
G01 X2.0686 Y13.8582
G01 X2.1271 Y13.7801
G01 X2.1923 Y13.7074
G01 X2.2194 Y13.6803
G01 X2.2921 Y13.6151
G01 X2.3702 Y13.5566
G01 X2.4020 Y13.5353
G01 X2.4860 Y13.4855
G01 X2.5741 Y13.4433
G01 X2.6095 Y13.4287
G01 X2.7016 Y13.3962
G01 X2.7962 Y13.3721
G01 X2.8337 Y13.3646
G01 X2.9304 Y13.3507
G01 X3.0470 Y13.3450
G01 X3.1636 Y13.3507
G01 X3.2792 Y13.3679
G01 X3.3924 Y13.3962
G01 X3.5024 Y13.4356
G01 X3.6080 Y13.4855
G01 X3.6920 Y13.5353
G01 X3.7238 Y13.5566
G01 X3.8019 Y13.6151
G01 X3.8885 Y13.6935
G01 X3.9669 Y13.7801
G01 X4.0254 Y13.8582
G01 X4.0467 Y13.8900
G01 X4.0965 Y13.9740
G01 X4.1387 Y14.0621
G01 X4.1533 Y14.0975
G01 X4.1858 Y14.1896
G01 X4.2099 Y14.2842
G01 X4.2174 Y14.3217
G01 X4.2289 Y14.3994
G01 X4.2327 Y14.4375
G01 X4.2370 Y14.5350
G01 X4.2370 Y15.4350
G01 X4.2313 Y15.5516
G01 X4.2141 Y15.6672
G01 X4.1909 Y15.7620
G01 X4.1798 Y15.7986
G01 X4.1464 Y15.8904
G01 X4.1051 Y15.9789
G01 X4.0870 Y16.0126
G01 X4.0467 Y16.0800
G01 X4.0254 Y16.1118
G01 X3.9787 Y16.1748
G01 X3.9544 Y16.2044
G01 X3.8885 Y16.2765
G01 X3.8019 Y16.3549
G01 X3.7238 Y16.4134
G01 X3.6920 Y16.4347
G01 X3.6080 Y16.4845
G01 X3.5024 Y16.5344
G01 X3.4106 Y16.5678
G01 X3.3740 Y16.5789
G01 X3.2792 Y16.6021
G01 X3.1636 Y16.6193
G01 X3.0661 Y16.6245
G01 X3.0279 Y16.6245
G01 X2.9304 Y16.6193
G01 X2.8148 Y16.6021
G01 X2.7016 Y16.5738
G01 X2.6095 Y16.5413
G01 X2.5741 Y16.5267
G01 X2.4860 Y16.4845
G01 X2.4020 Y16.4347
G01 X2.3702 Y16.4134
G01 X2.2921 Y16.3549
G01 X2.2194 Y16.2897
G01 X2.1923 Y16.2626
G01 X2.1271 Y16.1899
G01 X2.0686 Y16.1118
G01 X2.0473 Y16.0800
G01 X1.9975 Y15.9960
G01 X1.9553 Y15.9079
G01 X1.9407 Y15.8725
G01 X1.9142 Y15.7986
G01 X1.9067 Y15.7750
G01 X0.2434 Y15.7749
G01 X0.1947 Y15.7726
G01 X0.1566 Y15.7689
G01 X0.0989 Y15.7598
G01 X0.0421 Y15.7461
G01 X0.0055 Y15.7350
G01 X-0.0493 Y15.7149
G01 X-0.1023 Y15.6903
G01 X-0.1361 Y15.6723
G01 X-0.1859 Y15.6419
G01 X-0.2331 Y15.6075
G01 X-0.2627 Y15.5832
G01 X-0.2917 Y15.5568
G01 X-0.3188 Y15.5297
G01 X-0.3577 Y15.4862
G01 X-0.3928 Y15.4396
G01 X-0.4141 Y15.4077
G01 X-0.4437 Y15.3574
G01 X-0.4691 Y15.3048
G01 X-0.4838 Y15.2695
G01 X-0.5030 Y15.2143
G01 X-0.5176 Y15.1578
G01 X-0.5251 Y15.1203
G01 X-0.5332 Y15.0624
G01 X-0.5370 Y14.9850
G01 X-0.5365 Y0.4879
G01 X-0.5332 Y0.4296
G01 X-0.5218 Y0.3529
G01 X-0.5030 Y0.2777
G01 X-0.4838 Y0.2225
G01 X-0.4691 Y0.1872
G01 X-0.4523 Y0.1517
G01 X-0.4343 Y0.1179
G01 X-0.4039 Y0.0681
G01 X-0.3577 Y0.0058
G01 X-0.3056 Y-0.0516
G01 X-0.0516 Y-0.3056
G01 X0.0064 Y-0.3581
G01 X0.0692 Y-0.4046
G01 X0.1196 Y-0.4352
G01 X0.1537 Y-0.4533
G01 X0.1895 Y-0.4701
G01 X0.2252 Y-0.4848
G01 X0.2809 Y-0.5040
G01 X0.3569 Y-0.5226
G01 X0.4343 Y-0.5336
G01 X0.5124 Y-0.5370
G01 X37.5964 Y-0.2830
G01 X37.6545 Y-0.2802
G01 X37.6924 Y-0.2762
G01 X37.7498 Y-0.2669
G01 X37.8245 Y-0.2477
G01 X37.8971 Y-0.2213
G01 X37.9497 Y-0.1966
G01 X37.9832 Y-0.1785
G01 X38.0327 Y-0.1480
G01 X38.0795 Y-0.1135
G01 X38.1089 Y-0.0892
G01 X38.1515 Y-0.0497
G01 X38.2032 Y0.0077
G01 X38.2490 Y0.0698
G01 X38.2792 Y0.1195
G01 X38.2970 Y0.1531
G01 X38.3137 Y0.1885
G01 X38.3282 Y0.2237
G01 X38.3473 Y0.2786
G01 X38.3660 Y0.3535
G01 X38.3772 Y0.4299
G01 X38.3810 Y0.5070
G01 X38.3810 Y8.7149
G01 X38.5536 Y8.7150
G01 X38.6607 Y8.7206
G01 X38.7762 Y8.7378
G01 X38.8895 Y8.7661
G01 X38.9994 Y8.8055
G01 X39.1050 Y8.8554
G01 X39.2052 Y8.9155
G01 X39.2839 Y8.9733
G01 X39.3135 Y8.9975
G01 X39.3717 Y9.0503
G01 X39.3987 Y9.0773
G01 X39.4640 Y9.1500
G01 X39.5225 Y9.2282
G01 X39.5438 Y9.2600
G01 X39.5936 Y9.3440
G01 X39.6358 Y9.4321
G01 X39.6504 Y9.4674
G01 X39.6829 Y9.5595
G01 X39.7112 Y9.6728
G01 X39.7284 Y9.7883
G01 X39.7341 Y9.9050
G01 X39.7284 Y10.0217
G01 X39.7112 Y10.1372
G01 X39.6829 Y10.2505
G01 X39.6435 Y10.3604
G01 X39.5936 Y10.4660
G01 X39.5335 Y10.5662
G01 X39.4640 Y10.6600
G01 X39.3855 Y10.7465
G01 X39.2990 Y10.8250
G01 X39.2052 Y10.8945
G01 X39.1050 Y10.9546
G01 X38.9994 Y11.0045
G01 X38.8895 Y11.0439
G01 X38.7762 Y11.0722
G01 X38.6607 Y11.0894
G01 X38.5536 Y11.0950
G01 X37.6550 Y11.0951
G01 X37.5574 Y11.0908
G01 X37.5194 Y11.0870
G01 X37.4228 Y11.0722
G01 X37.3280 Y11.0490
G01 X37.2914 Y11.0379
G01 X37.2174 Y11.0114
G01 X37.1821 Y10.9968
G01 X37.0940 Y10.9546
G01 X37.0100 Y10.9048
G01 X36.9782 Y10.8835
G01 X36.9151 Y10.8367
G01 X36.8855 Y10.8125
G01 X36.8135 Y10.7465
G01 X36.7350 Y10.6600
G01 X36.6765 Y10.5818
G01 X36.6552 Y10.5500
G01 X36.6054 Y10.4660
G01 X36.5632 Y10.3779
G01 X36.5486 Y10.3426
G01 X36.5161 Y10.2505
G01 X36.4878 Y10.1372
G01 X36.4730 Y10.0406
G01 X36.4692 Y10.0026
G01 X36.4649 Y9.9050
G01 X36.4692 Y9.8074
G01 X36.4730 Y9.7694
G01 X36.4878 Y9.6728
G01 X36.5161 Y9.5595
G01 X36.5555 Y9.4496
G01 X36.5968 Y9.3611
G01 X36.6149 Y9.3273
G01 X36.6655 Y9.2438
G01 X36.7233 Y9.1651
G01 X36.7475 Y9.1355
G01 X36.8010 Y9.0766
G01 X36.8010 Y1.2916
G01 X1.0430 Y1.0467
G01 X1.0430 Y14.1950
G00 Z2.0000
G00 X7.5910 Y24.8583
G01 F300.00
G01 Z-0.1000
G01 F300.00
G01 X7.5674 Y24.8508
G01 X7.4935 Y24.8243
G01 X7.4581 Y24.8097
G01 X7.3700 Y24.7675
G01 X7.2860 Y24.7177
G01 X7.2542 Y24.6964
G01 X7.1761 Y24.6379
G01 X7.1034 Y24.5727
G01 X7.0763 Y24.5456
G01 X7.0111 Y24.4729
G01 X6.9526 Y24.3948
G01 X6.9313 Y24.3630
G01 X6.8815 Y24.2790
G01 X6.8393 Y24.1909
G01 X6.8247 Y24.1555
G01 X6.7922 Y24.0634
G01 X6.7681 Y23.9688
G01 X6.7606 Y23.9313
G01 X6.7467 Y23.8346
G01 X6.7415 Y23.7371
G01 X6.7415 Y23.6989
G01 X6.7467 Y23.6014
G01 X6.7606 Y23.5047
G01 X6.7681 Y23.4672
G01 X6.7922 Y23.3726
G01 X6.8247 Y23.2805
G01 X6.8393 Y23.2451
G01 X6.8815 Y23.1570
G01 X6.9313 Y23.0730
G01 X6.9526 Y23.0412
G01 X7.0111 Y22.9631
G01 X7.0763 Y22.8904
G01 X7.1034 Y22.8633
G01 X7.1761 Y22.7981
G01 X7.2542 Y22.7396
G01 X7.2860 Y22.7183
G01 X7.3700 Y22.6685
G01 X7.4581 Y22.6263
G01 X7.4935 Y22.6117
G01 X7.5856 Y22.5792
G01 X7.6988 Y22.5509
G01 X7.8144 Y22.5337
G01 X7.9214 Y22.5281
G01 X8.8310 Y22.5280
G01 X8.9476 Y22.5337
G01 X9.0632 Y22.5509
G01 X9.1764 Y22.5792
G01 X9.2864 Y22.6186
G01 X9.3920 Y22.6685
G01 X9.4921 Y22.7286
G01 X9.5859 Y22.7981
G01 X9.6586 Y22.8633
G01 X9.6857 Y22.8904
G01 X9.7384 Y22.9486
G01 X9.7627 Y22.9782
G01 X9.8204 Y23.0569
G01 X9.8710 Y23.1404
G01 X9.8891 Y23.1741
G01 X9.9304 Y23.2626
G01 X9.9638 Y23.3544
G01 X9.9749 Y23.3910
G01 X9.9981 Y23.4858
G01 X10.0153 Y23.6014
G01 X10.0210 Y23.7180
G01 X10.0167 Y23.8155
G01 X10.0129 Y23.8536
G01 X9.9981 Y23.9502
G01 X9.9749 Y24.0450
G01 X9.9638 Y24.0816
G01 X9.9304 Y24.1734
G01 X9.8891 Y24.2619
G01 X9.8710 Y24.2956
G01 X9.8204 Y24.3791
G01 X9.7509 Y24.4729
G01 X9.6857 Y24.5456
G01 X9.6586 Y24.5727
G01 X9.5859 Y24.6379
G01 X9.4921 Y24.7074
G01 X9.3920 Y24.7675
G01 X9.3039 Y24.8097
G01 X9.2685 Y24.8243
G01 X9.1946 Y24.8508
G01 X9.1710 Y24.8583
G01 X9.1710 Y26.7490
G01 X9.3486 Y26.7491
G01 X9.4556 Y26.7547
G01 X9.5712 Y26.7719
G01 X9.6844 Y26.8002
G01 X9.7944 Y26.8396
G01 X9.9000 Y26.8895
G01 X10.0001 Y26.9496
G01 X10.0939 Y27.0191
G01 X10.1805 Y27.0975
G01 X10.2589 Y27.1841
G01 X10.3284 Y27.2779
G01 X10.3790 Y27.3614
G01 X10.3971 Y27.3951
G01 X10.4384 Y27.4836
G01 X10.4718 Y27.5754
G01 X10.4829 Y27.6120
G01 X10.5019 Y27.6882
G01 X10.5094 Y27.7257
G01 X10.5233 Y27.8224
G01 X10.5285 Y27.9199
G01 X10.5285 Y27.9581
G01 X10.5247 Y28.0365
G01 X10.5209 Y28.0746
G01 X10.5061 Y28.1712
G01 X10.4829 Y28.2660
G01 X10.4718 Y28.3026
G01 X10.4384 Y28.3944
G01 X10.3971 Y28.4829
G01 X10.3790 Y28.5166
G01 X10.3284 Y28.6001
G01 X10.2707 Y28.6788
G01 X10.2464 Y28.7084
G01 X10.1805 Y28.7805
G01 X10.0939 Y28.8589
G01 X10.0158 Y28.9174
G01 X9.9840 Y28.9387
G01 X9.9000 Y28.9885
G01 X9.7944 Y29.0384
G01 X9.6844 Y29.0778
G01 X9.5712 Y29.1061
G01 X9.4746 Y29.1209
G01 X9.4365 Y29.1247
G01 X9.3390 Y29.1290
G01 X8.4294 Y29.1289
G01 X8.3224 Y29.1233
G01 X8.2068 Y29.1061
G01 X8.0936 Y29.0778
G01 X8.0015 Y29.0453
G01 X7.9661 Y29.0307
G01 X7.8951 Y28.9971
G01 X7.8614 Y28.9790
G01 X7.7779 Y28.9284
G01 X7.6992 Y28.8707
G01 X7.6696 Y28.8464
G01 X7.5975 Y28.7805
G01 X7.5191 Y28.6939
G01 X7.4496 Y28.6001
G01 X7.3895 Y28.5000
G01 X7.3473 Y28.4119
G01 X7.3327 Y28.3765
G01 X7.3002 Y28.2844
G01 X7.2719 Y28.1712
G01 X7.2571 Y28.0746
G01 X7.2533 Y28.0365
G01 X7.2490 Y27.9390
G01 X7.2533 Y27.8415
G01 X7.2571 Y27.8034
G01 X7.2686 Y27.7257
G01 X7.2761 Y27.6882
G01 X7.3002 Y27.5936
G01 X7.3327 Y27.5015
G01 X7.3473 Y27.4661
G01 X7.3895 Y27.3780
G01 X7.4496 Y27.2779
G01 X7.5191 Y27.1841
G01 X7.5910 Y27.1044
G01 X7.5910 Y24.8583
G00 Z2.0000
G00 X7.5238 Y34.7690
G01 F300.00
G01 Z-0.1000
G01 F300.00
G01 X7.5432 Y34.7467
G01 X7.5630 Y34.7253
G01 X7.5838 Y34.7038
G01 X7.6053 Y34.6830
G01 X7.6267 Y34.6632
G01 X7.6490 Y34.6438
G01 X7.6998 Y34.6020
G01 X7.7200 Y34.5864
G01 X7.7713 Y34.5506
G01 X7.8213 Y34.5193
G01 X7.8740 Y34.4900
G01 X7.8740 Y34.5118
G01 X7.7779 Y34.5696
G01 X7.6841 Y34.6391
G01 X7.5975 Y34.7175
G01 X7.5503 Y34.7690
G01 X7.5238 Y34.7690
G00 Z2.0000
G00 X7.5230 Y36.3490
G01 F300.00
G01 Z-0.1000
G01 F300.00
G01 X7.5503 Y36.3490
G01 X7.5975 Y36.4005
G01 X7.6841 Y36.4789
G01 X7.7779 Y36.5484
G01 X7.8740 Y36.6062
G01 X7.8740 Y36.6290
G01 X7.8213 Y36.5997
G01 X7.7987 Y36.5857
G01 X7.7417 Y36.5477
G01 X7.7200 Y36.5326
G01 X7.6998 Y36.5170
G01 X7.6490 Y36.4752
G01 X7.6267 Y36.4558
G01 X7.6053 Y36.4360
G01 X7.5838 Y36.4152
G01 X7.5630 Y36.3937
G01 X7.5432 Y36.3723
G01 X7.5230 Y36.3490
G00 Z2.0000
G00 X9.9040 Y36.6296
G01 F300.00
G01 Z-0.1000
G01 F300.00
G01 X9.9040 Y36.6062
G01 X10.0001 Y36.5484
G01 X10.0939 Y36.4789
G01 X10.1805 Y36.4005
G01 X10.2277 Y36.3490
G01 X10.2560 Y36.3490
G01 X10.2358 Y36.3723
G01 X10.2160 Y36.3937
G01 X10.1952 Y36.4152
G01 X10.1737 Y36.4360
G01 X10.1523 Y36.4558
G01 X10.1300 Y36.4752
G01 X10.0792 Y36.5170
G01 X10.0590 Y36.5326
G01 X10.0373 Y36.5477
G01 X9.9803 Y36.5857
G01 X9.9577 Y36.5997
G01 X9.9040 Y36.6296
G00 Z2.0000
G00 X9.9040 Y34.5118
G01 F300.00
G01 Z-0.1000
G01 F300.00
G01 X9.9040 Y34.4894
G01 X9.9577 Y34.5193
G01 X9.9838 Y34.5354
G01 X10.0077 Y34.5506
G01 X10.0590 Y34.5864
G01 X10.1043 Y34.6222
G01 X10.1523 Y34.6632
G01 X10.1952 Y34.7038
G01 X10.2358 Y34.7467
G01 X10.2552 Y34.7690
G01 X10.2277 Y34.7690
G01 X10.1805 Y34.7175
G01 X10.0939 Y34.6391
G01 X10.0001 Y34.5696
G01 X9.9040 Y34.5118
G00 Z2.0000
G00 X16.4891 Y36.0700
G01 F300.00
G01 Z-0.1000
G01 F300.00
G01 X16.5173 Y36.0700
G01 X16.5645 Y36.1215
G01 X16.6511 Y36.1999
G01 X16.7449 Y36.2694
G01 X16.8410 Y36.3272
G01 X16.8410 Y36.3496
G01 X16.7845 Y36.3185
G01 X16.7626 Y36.3054
G01 X16.6860 Y36.2526
G01 X16.6658 Y36.2370
G01 X16.6150 Y36.1960
G01 X16.5713 Y36.1560
G01 X16.5290 Y36.1145
G01 X16.4891 Y36.0700
G00 Z2.0000
G00 X18.8710 Y36.3495
G01 F300.00
G01 Z-0.1000
G01 F300.00
G01 X18.8710 Y36.3272
G01 X18.9671 Y36.2694
G01 X19.0609 Y36.1999
G01 X19.1475 Y36.1215
G01 X19.1947 Y36.0700
G01 X19.2219 Y36.0700
G01 X19.1820 Y36.1145
G01 X19.1636 Y36.1328
G01 X19.1157 Y36.1783
G01 X19.0936 Y36.1981
G01 X19.0741 Y36.2145
G01 X19.0250 Y36.2526
G01 X18.9463 Y36.3067
G01 X18.9273 Y36.3185
G01 X18.8710 Y36.3495
G00 Z2.0000
G00 X21.4981 Y36.0950
G01 F300.00
G01 Z-0.1000
G01 F300.00
G01 X21.5261 Y36.0950
G01 X21.5735 Y36.1465
G01 X21.6600 Y36.2250
G01 X21.7538 Y36.2945
G01 X21.8373 Y36.3451
G01 X21.8616 Y36.3584
G01 X21.8680 Y36.3813
G01 X21.8841 Y36.4211
G01 X21.9045 Y36.4588
G01 X21.9289 Y36.4941
G01 X21.9570 Y36.5264
G01 X21.9884 Y36.5555
G01 X22.0229 Y36.5810
G01 X22.0600 Y36.6025
G01 X22.0992 Y36.6198
G01 X22.1401 Y36.6328
G01 X22.1821 Y36.6411
G01 X22.2248 Y36.6448
G01 X22.2677 Y36.6438
G01 X22.3393 Y36.6383
G01 X22.4247 Y36.6350
G01 X23.2943 Y36.6350
G01 X23.3797 Y36.6383
G01 X23.4513 Y36.6438
G01 X23.4942 Y36.6448
G01 X23.5369 Y36.6411
G01 X23.5789 Y36.6328
G01 X23.6198 Y36.6198
G01 X23.6590 Y36.6025
G01 X23.6961 Y36.5810
G01 X23.7306 Y36.5555
G01 X23.7620 Y36.5264
G01 X23.7901 Y36.4941
G01 X23.8145 Y36.4588
G01 X23.8349 Y36.4211
G01 X23.8510 Y36.3813
G01 X23.8574 Y36.3584
G01 X23.8817 Y36.3451
G01 X23.9652 Y36.2945
G01 X24.0590 Y36.2250
G01 X24.1455 Y36.1465
G01 X24.1929 Y36.0950
G01 X24.2209 Y36.0950
G01 X24.1800 Y36.1397
G01 X24.1362 Y36.1843
G01 X24.1173 Y36.2018
G01 X24.0693 Y36.2428
G01 X24.0260 Y36.2765
G01 X23.9944 Y36.3063
G01 X23.9662 Y36.3393
G01 X23.9420 Y36.3753
G01 X23.9219 Y36.4138
G01 X23.9062 Y36.4542
G01 X23.8950 Y36.4962
G01 X23.8887 Y36.5391
G01 X23.8871 Y36.5825
G01 X23.8903 Y36.6257
G01 X23.8983 Y36.6684
G01 X23.9111 Y36.7099
G01 X23.9283 Y36.7497
G01 X23.9499 Y36.7873
G01 X23.9755 Y36.8224
G01 X24.0048 Y36.8543
G01 X24.0376 Y36.8828
G01 X24.0950 Y36.9298
G01 X24.1362 Y36.9667
G01 X24.1800 Y37.0113
G01 X24.2221 Y37.0574
G01 X24.2385 Y37.0769
G01 X24.2790 Y37.1291
G01 X24.2949 Y37.1510
G01 X24.3284 Y37.2012
G01 X24.3583 Y37.2528
G01 X24.3890 Y37.3094
G01 X24.4255 Y37.3910
G01 X24.4355 Y37.4163
G01 X24.4455 Y37.4448
G01 X24.4639 Y37.5002
G01 X24.4803 Y37.5635
G01 X24.4869 Y37.5920
G01 X24.4983 Y37.6511
G01 X24.5064 Y37.7096
G01 X24.5117 Y37.7703
G01 X24.5140 Y37.8300
G01 X24.5140 Y37.8601
G01 X24.5132 Y37.8904
G01 X24.5095 Y37.9505
G01 X24.5026 Y38.0117
G01 X24.4930 Y38.0694
G01 X24.4803 Y38.1275
G01 X24.4639 Y38.1908
G01 X24.4455 Y38.2462
G01 X24.4355 Y38.2747
G01 X24.4255 Y38.3000
G01 X24.4136 Y38.3275
G01 X24.3880 Y38.3826
G01 X24.3583 Y38.4382
G01 X24.3284 Y38.4898
G01 X24.2965 Y38.5377
G01 X24.2385 Y38.6141
G01 X24.2221 Y38.6336
G01 X24.2023 Y38.6557
G01 X24.1568 Y38.7036
G01 X24.1173 Y38.7418
G01 X24.0693 Y38.7828
G01 X24.0465 Y38.8011
G01 X24.0232 Y38.8186
G01 X23.9740 Y38.8529
G01 X23.9217 Y38.8857
G01 X23.8696 Y38.9152
G01 X23.7833 Y38.9566
G01 X23.7605 Y38.9664
G01 X23.7052 Y38.9874
G01 X23.6789 Y38.9957
G01 X23.6153 Y39.0147
G01 X23.5608 Y39.0280
G01 X23.4995 Y39.0390
G01 X23.4383 Y39.0475
G01 X23.3797 Y39.0527
G01 X23.2943 Y39.0560
G01 X22.4247 Y39.0560
G01 X22.3393 Y39.0527
G01 X22.2801 Y39.0475
G01 X22.2203 Y39.0391
G01 X22.1582 Y39.0280
G01 X22.1037 Y39.0147
G01 X22.0138 Y38.9874
G01 X21.9585 Y38.9664
G01 X21.9357 Y38.9566
G01 X21.8473 Y38.9141
G01 X21.7994 Y38.8870
G01 X21.7441 Y38.8529
G01 X21.7223 Y38.8377
G01 X21.6725 Y38.8011
G01 X21.6497 Y38.7828
G01 X21.6017 Y38.7418
G01 X21.5828 Y38.7243
G01 X21.5390 Y38.6797
G01 X21.4969 Y38.6336
G01 X21.4805 Y38.6141
G01 X21.4391 Y38.5610
G01 X21.4247 Y38.5410
G01 X21.3883 Y38.4863
G01 X21.3597 Y38.4382
G01 X21.3328 Y38.3865
G01 X21.3054 Y38.3275
G01 X21.2835 Y38.2747
G01 X21.2625 Y38.2141
G01 X21.2466 Y38.1611
G01 X21.2321 Y38.0990
G01 X21.2260 Y38.0694
G01 X21.2164 Y38.0117
G01 X21.2095 Y37.9505
G01 X21.2058 Y37.8904
G01 X21.2050 Y37.8300
G01 X21.2073 Y37.7703
G01 X21.2095 Y37.7400
G01 X21.2163 Y37.6798
G01 X21.2260 Y37.6216
G01 X21.2321 Y37.5920
G01 X21.2466 Y37.5299
G01 X21.2537 Y37.5047
G01 X21.2735 Y37.4448
G01 X21.2835 Y37.4163
G01 X21.2935 Y37.3910
G01 X21.3196 Y37.3315
G01 X21.3318 Y37.3055
G01 X21.3597 Y37.2528
G01 X21.3883 Y37.2047
G01 X21.4392 Y37.1292
G01 X21.4969 Y37.0574
G01 X21.5390 Y37.0113
G01 X21.5828 Y36.9667
G01 X21.6240 Y36.9298
G01 X21.6814 Y36.8828
G01 X21.7142 Y36.8543
G01 X21.7435 Y36.8224
G01 X21.7691 Y36.7873
G01 X21.7907 Y36.7497
G01 X21.8079 Y36.7099
G01 X21.8207 Y36.6684
G01 X21.8287 Y36.6257
G01 X21.8319 Y36.5825
G01 X21.8303 Y36.5391
G01 X21.8240 Y36.4962
G01 X21.8128 Y36.4542
G01 X21.7971 Y36.4138
G01 X21.7770 Y36.3753
G01 X21.7528 Y36.3393
G01 X21.7246 Y36.3063
G01 X21.6930 Y36.2765
G01 X21.6497 Y36.2428
G01 X21.6017 Y36.2018
G01 X21.5828 Y36.1843
G01 X21.5390 Y36.1397
G01 X21.4981 Y36.0950
G00 Z2.0000
G00 X22.4150 Y36.6549
G01 F300.00
G01 Z-0.1000
G01 F300.00
G01 X23.3136 Y36.6550
G01 X23.4207 Y36.6606
G01 X23.5173 Y36.6745
G01 X23.5549 Y36.6820
G01 X23.6495 Y36.7061
G01 X23.7594 Y36.7455
G01 X23.8650 Y36.7954
G01 X23.9490 Y36.8452
G01 X23.9808 Y36.8665
G01 X24.0439 Y36.9133
G01 X24.0735 Y36.9375
G01 X24.1455 Y37.0035
G01 X24.2115 Y37.0755
G01 X24.2357 Y37.1051
G01 X24.2935 Y37.1838
G01 X24.3536 Y37.2840
G01 X24.4035 Y37.3896
G01 X24.4429 Y37.4995
G01 X24.4712 Y37.6128
G01 X24.4884 Y37.7283
G01 X24.4941 Y37.8450
G01 X24.4884 Y37.9617
G01 X24.4712 Y38.0772
G01 X24.4429 Y38.1905
G01 X24.4035 Y38.3004
G01 X24.3536 Y38.4060
G01 X24.2935 Y38.5062
G01 X24.2240 Y38.6000
G01 X24.1455 Y38.6865
G01 X24.0735 Y38.7525
G01 X24.0439 Y38.7767
G01 X23.9652 Y38.8345
G01 X23.8817 Y38.8851
G01 X23.8479 Y38.9032
G01 X23.7594 Y38.9445
G01 X23.6676 Y38.9779
G01 X23.6310 Y38.9890
G01 X23.5362 Y39.0122
G01 X23.4396 Y39.0270
G01 X23.4016 Y39.0308
G01 X23.3040 Y39.0351
G01 X22.4150 Y39.0351
G01 X22.2983 Y39.0294
G01 X22.1828 Y39.0122
G01 X22.0695 Y38.9839
G01 X21.9596 Y38.9445
G01 X21.8540 Y38.8946
G01 X21.7538 Y38.8345
G01 X21.6600 Y38.7650
G01 X21.5735 Y38.6865
G01 X21.5075 Y38.6145
G01 X21.4833 Y38.5849
G01 X21.4255 Y38.5062
G01 X21.3749 Y38.4227
G01 X21.3568 Y38.3889
G01 X21.3155 Y38.3004
G01 X21.2821 Y38.2086
G01 X21.2710 Y38.1720
G01 X21.2478 Y38.0772
G01 X21.2306 Y37.9617
G01 X21.2254 Y37.8641
G01 X21.2254 Y37.8259
G01 X21.2306 Y37.7283
G01 X21.2478 Y37.6128
G01 X21.2710 Y37.5180
G01 X21.2821 Y37.4814
G01 X21.3155 Y37.3896
G01 X21.3568 Y37.3011
G01 X21.3749 Y37.2673
G01 X21.4255 Y37.1838
G01 X21.4833 Y37.1051
G01 X21.5075 Y37.0755
G01 X21.5735 Y37.0035
G01 X21.6455 Y36.9375
G01 X21.6751 Y36.9133
G01 X21.7382 Y36.8665
G01 X21.7700 Y36.8452
G01 X21.8540 Y36.7954
G01 X21.9421 Y36.7532
G01 X21.9774 Y36.7386
G01 X22.0695 Y36.7061
G01 X22.1828 Y36.6778
G01 X22.2794 Y36.6630
G01 X22.3174 Y36.6592
G01 X22.4150 Y36.6549
G00 Z2.0000
G00 X19.1721 Y33.5550
G01 F300.00
G01 Z-0.1000
G01 F300.00
G01 X19.1475 Y33.5815
G01 X19.1336 Y33.5947
G01 X19.0754 Y33.6474
G01 X19.0458 Y33.6717
G01 X18.9671 Y33.7294
G01 X18.8836 Y33.7800
G01 X18.8499 Y33.7981
G01 X18.7614 Y33.8394
G01 X18.6514 Y33.8788
G01 X18.5382 Y33.9071
G01 X18.4416 Y33.9219
G01 X18.4035 Y33.9257
G01 X18.3060 Y33.9300
G01 X17.4060 Y33.9300
G01 X17.3085 Y33.9257
G01 X17.2704 Y33.9219
G01 X17.1927 Y33.9104
G01 X17.1552 Y33.9029
G01 X17.0606 Y33.8788
G01 X16.9685 Y33.8463
G01 X16.9331 Y33.8317
G01 X16.8450 Y33.7895
G01 X16.7449 Y33.7294
G01 X16.6511 Y33.6599
G01 X16.5645 Y33.5815
G01 X16.4861 Y33.4949
G01 X16.4166 Y33.4011
G01 X16.3565 Y33.3010
G01 X16.3066 Y33.1954
G01 X16.2672 Y33.0854
G01 X16.2389 Y32.9722
G01 X16.2217 Y32.8566
G01 X16.2160 Y32.7400
G01 X16.2217 Y32.6234
G01 X16.2389 Y32.5078
G01 X16.2672 Y32.3946
G01 X16.2997 Y32.3025
G01 X16.3143 Y32.2671
G01 X16.3565 Y32.1790
G01 X16.4063 Y32.0950
G01 X16.4276 Y32.0632
G01 X16.4861 Y31.9851
G01 X16.5513 Y31.9124
G01 X16.5784 Y31.8853
G01 X16.6511 Y31.8201
G01 X16.7292 Y31.7616
G01 X16.7610 Y31.7403
G01 X16.8450 Y31.6905
G01 X16.9331 Y31.6483
G01 X16.9685 Y31.6337
G01 X17.0606 Y31.6012
G01 X17.1552 Y31.5771
G01 X17.1927 Y31.5696
G01 X17.2894 Y31.5557
G01 X17.4060 Y31.5500
G01 X18.3156 Y31.5501
G01 X18.4226 Y31.5557
G01 X18.5382 Y31.5729
G01 X18.6514 Y31.6012
G01 X18.7435 Y31.6337
G01 X18.7789 Y31.6483
G01 X18.8499 Y31.6819
G01 X18.8836 Y31.7000
G01 X18.9671 Y31.7506
G01 X19.0609 Y31.8201
G01 X19.1475 Y31.8985
G01 X19.2172 Y31.9750
G01 X21.5261 Y31.9750
G01 X21.5735 Y31.9235
G01 X21.6600 Y31.8450
G01 X21.7538 Y31.7755
G01 X21.8373 Y31.7249
G01 X21.8711 Y31.7068
G01 X21.9421 Y31.6732
G01 X21.9774 Y31.6586
G01 X22.0695 Y31.6261
G01 X22.1828 Y31.5978
G01 X22.2983 Y31.5806
G01 X22.4054 Y31.5750
G01 X23.3136 Y31.5750
G01 X23.4207 Y31.5806
G01 X23.5362 Y31.5978
G01 X23.6495 Y31.6261
G01 X23.7416 Y31.6586
G01 X23.7769 Y31.6732
G01 X23.8479 Y31.7068
G01 X23.8817 Y31.7249
G01 X23.9652 Y31.7755
G01 X24.0590 Y31.8450
G01 X24.1455 Y31.9235
G01 X24.2115 Y31.9955
G01 X24.2357 Y32.0251
G01 X24.2825 Y32.0882
G01 X24.3038 Y32.1200
G01 X24.3536 Y32.2040
G01 X24.4035 Y32.3096
G01 X24.4429 Y32.4195
G01 X24.4712 Y32.5328
G01 X24.4884 Y32.6483
G01 X24.4941 Y32.7650
G01 X24.4884 Y32.8817
G01 X24.4712 Y32.9972
G01 X24.4429 Y33.1105
G01 X24.4035 Y33.2204
G01 X24.3536 Y33.3260
G01 X24.2935 Y33.4262
G01 X24.2240 Y33.5200
G01 X24.1455 Y33.6065
G01 X24.0590 Y33.6850
G01 X23.9652 Y33.7545
G01 X23.8650 Y33.8146
G01 X23.7594 Y33.8645
G01 X23.6495 Y33.9039
G01 X23.5362 Y33.9322
G01 X23.4207 Y33.9494
G01 X23.3136 Y33.9550
G01 X22.4150 Y33.9551
G01 X22.2983 Y33.9494
G01 X22.1828 Y33.9322
G01 X22.0695 Y33.9039
G01 X21.9774 Y33.8714
G01 X21.9421 Y33.8568
G01 X21.8711 Y33.8232
G01 X21.8373 Y33.8051
G01 X21.7538 Y33.7545
G01 X21.6600 Y33.6850
G01 X21.5735 Y33.6065
G01 X21.5261 Y33.5550
G01 X19.1721 Y33.5550
G00 Z2.0000
G00 X22.4150 Y26.4949
G01 F300.00
G01 Z-0.1000
G01 F300.00
G01 X23.3136 Y26.4950
G01 X23.4207 Y26.5006
G01 X23.5173 Y26.5145
G01 X23.5549 Y26.5220
G01 X23.6495 Y26.5461
G01 X23.7594 Y26.5855
G01 X23.8650 Y26.6354
G01 X23.9490 Y26.6852
G01 X23.9808 Y26.7065
G01 X24.0439 Y26.7533
G01 X24.0735 Y26.7775
G01 X24.1455 Y26.8435
G01 X24.2115 Y26.9155
G01 X24.2357 Y26.9451
G01 X24.2935 Y27.0238
G01 X24.3536 Y27.1240
G01 X24.4035 Y27.2296
G01 X24.4429 Y27.3395
G01 X24.4712 Y27.4528
G01 X24.4884 Y27.5683
G01 X24.4941 Y27.6850
G01 X24.4884 Y27.8017
G01 X24.4712 Y27.9172
G01 X24.4429 Y28.0305
G01 X24.4035 Y28.1404
G01 X24.3536 Y28.2460
G01 X24.2935 Y28.3462
G01 X24.2240 Y28.4400
G01 X24.1455 Y28.5265
G01 X24.0735 Y28.5925
G01 X24.0439 Y28.6167
G01 X23.9652 Y28.6745
G01 X23.8817 Y28.7251
G01 X23.8479 Y28.7432
G01 X23.7594 Y28.7845
G01 X23.6676 Y28.8179
G01 X23.6310 Y28.8290
G01 X23.5362 Y28.8522
G01 X23.4396 Y28.8670
G01 X23.4016 Y28.8708
G01 X23.3040 Y28.8751
G01 X22.4150 Y28.8751
G01 X22.2983 Y28.8694
G01 X22.1828 Y28.8522
G01 X22.0695 Y28.8239
G01 X21.9596 Y28.7845
G01 X21.8540 Y28.7346
G01 X21.7538 Y28.6745
G01 X21.6600 Y28.6050
G01 X21.5735 Y28.5265
G01 X21.5075 Y28.4545
G01 X21.4833 Y28.4249
G01 X21.4255 Y28.3462
G01 X21.3749 Y28.2627
G01 X21.3568 Y28.2289
G01 X21.3155 Y28.1404
G01 X21.2821 Y28.0486
G01 X21.2710 Y28.0120
G01 X21.2478 Y27.9172
G01 X21.2306 Y27.8017
G01 X21.2249 Y27.6850
G01 X21.2292 Y27.5874
G01 X21.2330 Y27.5494
G01 X21.2478 Y27.4528
G01 X21.2710 Y27.3580
G01 X21.2821 Y27.3214
G01 X21.3155 Y27.2296
G01 X21.3568 Y27.1411
G01 X21.3749 Y27.1073
G01 X21.4152 Y27.0400
G01 X21.4365 Y27.0082
G01 X21.4950 Y26.9300
G01 X21.5603 Y26.8573
G01 X21.5873 Y26.8303
G01 X21.6600 Y26.7650
G01 X21.7382 Y26.7065
G01 X21.7700 Y26.6852
G01 X21.8540 Y26.6354
G01 X21.9421 Y26.5932
G01 X21.9774 Y26.5786
G01 X22.0695 Y26.5461
G01 X22.1828 Y26.5178
G01 X22.2794 Y26.5030
G01 X22.3174 Y26.4992
G01 X22.4150 Y26.4949
G00 Z2.0000
G00 X22.4150 Y23.9549
G01 F300.00
G01 Z-0.1000
G01 F300.00
G01 X23.3136 Y23.9550
G01 X23.4207 Y23.9606
G01 X23.5173 Y23.9745
G01 X23.5549 Y23.9820
G01 X23.6495 Y24.0061
G01 X23.7594 Y24.0455
G01 X23.8650 Y24.0954
G01 X23.9490 Y24.1452
G01 X23.9808 Y24.1665
G01 X24.0439 Y24.2133
G01 X24.0735 Y24.2375
G01 X24.1455 Y24.3035
G01 X24.2115 Y24.3755
G01 X24.2357 Y24.4051
G01 X24.2935 Y24.4838
G01 X24.3536 Y24.5840
G01 X24.4035 Y24.6896
G01 X24.4429 Y24.7995
G01 X24.4712 Y24.9128
G01 X24.4884 Y25.0283
G01 X24.4941 Y25.1450
G01 X24.4884 Y25.2617
G01 X24.4712 Y25.3772
G01 X24.4429 Y25.4905
G01 X24.4035 Y25.6004
G01 X24.3536 Y25.7060
G01 X24.2935 Y25.8062
G01 X24.2240 Y25.9000
G01 X24.1455 Y25.9865
G01 X24.0735 Y26.0525
G01 X24.0439 Y26.0767
G01 X23.9652 Y26.1345
G01 X23.8817 Y26.1851
G01 X23.8479 Y26.2032
G01 X23.7594 Y26.2445
G01 X23.6676 Y26.2779
G01 X23.6310 Y26.2890
G01 X23.5362 Y26.3122
G01 X23.4396 Y26.3270
G01 X23.4016 Y26.3308
G01 X23.3040 Y26.3351
G01 X22.4150 Y26.3351
G01 X22.2983 Y26.3294
G01 X22.1828 Y26.3122
G01 X22.0695 Y26.2839
G01 X21.9596 Y26.2445
G01 X21.8540 Y26.1946
G01 X21.7538 Y26.1345
G01 X21.6600 Y26.0650
G01 X21.5735 Y25.9865
G01 X21.5075 Y25.9145
G01 X21.4833 Y25.8849
G01 X21.4255 Y25.8062
G01 X21.3749 Y25.7227
G01 X21.3568 Y25.6889
G01 X21.3155 Y25.6004
G01 X21.2821 Y25.5086
G01 X21.2710 Y25.4720
G01 X21.2478 Y25.3772
G01 X21.2306 Y25.2617
G01 X21.2249 Y25.1450
G01 X21.2292 Y25.0474
G01 X21.2330 Y25.0094
G01 X21.2478 Y24.9128
G01 X21.2710 Y24.8180
G01 X21.2821 Y24.7814
G01 X21.3155 Y24.6896
G01 X21.3568 Y24.6011
G01 X21.3749 Y24.5673
G01 X21.4152 Y24.5000
G01 X21.4365 Y24.4682
G01 X21.4950 Y24.3900
G01 X21.5603 Y24.3173
G01 X21.5873 Y24.2903
G01 X21.6600 Y24.2250
G01 X21.7382 Y24.1665
G01 X21.7700 Y24.1452
G01 X21.8540 Y24.0954
G01 X21.9421 Y24.0532
G01 X21.9774 Y24.0386
G01 X22.0695 Y24.0061
G01 X22.1828 Y23.9778
G01 X22.2794 Y23.9630
G01 X22.3174 Y23.9592
G01 X22.4150 Y23.9549
G00 Z2.0000
G00 X22.4150 Y21.4149
G01 F300.00
G01 Z-0.1000
G01 F300.00
G01 X23.3136 Y21.4150
G01 X23.4207 Y21.4206
G01 X23.5173 Y21.4345
G01 X23.5549 Y21.4420
G01 X23.6495 Y21.4661
G01 X23.7594 Y21.5055
G01 X23.8650 Y21.5554
G01 X23.9490 Y21.6052
G01 X23.9808 Y21.6265
G01 X24.0439 Y21.6733
G01 X24.0735 Y21.6975
G01 X24.1455 Y21.7635
G01 X24.2115 Y21.8355
G01 X24.2357 Y21.8651
G01 X24.2935 Y21.9438
G01 X24.3536 Y22.0440
G01 X24.4035 Y22.1496
G01 X24.4429 Y22.2595
G01 X24.4712 Y22.3728
G01 X24.4884 Y22.4883
G01 X24.4941 Y22.6050
G01 X24.4884 Y22.7217
G01 X24.4712 Y22.8372
G01 X24.4429 Y22.9505
G01 X24.4035 Y23.0604
G01 X24.3536 Y23.1660
G01 X24.2935 Y23.2662
G01 X24.2240 Y23.3600
G01 X24.1455 Y23.4465
G01 X24.0735 Y23.5125
G01 X24.0439 Y23.5367
G01 X23.9652 Y23.5945
G01 X23.8817 Y23.6451
G01 X23.8479 Y23.6632
G01 X23.7594 Y23.7045
G01 X23.6676 Y23.7379
G01 X23.6310 Y23.7490
G01 X23.5362 Y23.7722
G01 X23.4396 Y23.7870
G01 X23.4016 Y23.7908
G01 X23.3040 Y23.7951
G01 X22.4150 Y23.7951
G01 X22.2983 Y23.7894
G01 X22.1828 Y23.7722
G01 X22.0695 Y23.7439
G01 X21.9596 Y23.7045
G01 X21.8540 Y23.6546
G01 X21.7538 Y23.5945
G01 X21.6600 Y23.5250
G01 X21.5735 Y23.4465
G01 X21.5075 Y23.3745
G01 X21.4833 Y23.3449
G01 X21.4255 Y23.2662
G01 X21.3749 Y23.1827
G01 X21.3568 Y23.1489
G01 X21.3155 Y23.0604
G01 X21.2821 Y22.9686
G01 X21.2710 Y22.9320
G01 X21.2478 Y22.8372
G01 X21.2306 Y22.7217
G01 X21.2249 Y22.6050
G01 X21.2292 Y22.5074
G01 X21.2330 Y22.4694
G01 X21.2478 Y22.3728
G01 X21.2710 Y22.2780
G01 X21.2821 Y22.2414
G01 X21.3155 Y22.1496
G01 X21.3568 Y22.0611
G01 X21.3749 Y22.0273
G01 X21.4152 Y21.9600
G01 X21.4365 Y21.9282
G01 X21.4950 Y21.8500
G01 X21.5603 Y21.7773
G01 X21.5873 Y21.7503
G01 X21.6600 Y21.6850
G01 X21.7382 Y21.6265
G01 X21.7700 Y21.6052
G01 X21.8540 Y21.5554
G01 X21.9421 Y21.5132
G01 X21.9774 Y21.4986
G01 X22.0695 Y21.4661
G01 X22.1828 Y21.4378
G01 X22.2794 Y21.4230
G01 X22.3174 Y21.4192
G01 X22.4150 Y21.4149
G00 Z2.0000
G00 X22.4150 Y18.8749
G01 F300.00
G01 Z-0.1000
G01 F300.00
G01 X23.3136 Y18.8750
G01 X23.4207 Y18.8806
G01 X23.5173 Y18.8945
G01 X23.5549 Y18.9020
G01 X23.6495 Y18.9261
G01 X23.7594 Y18.9655
G01 X23.8650 Y19.0154
G01 X23.9490 Y19.0652
G01 X23.9808 Y19.0865
G01 X24.0439 Y19.1333
G01 X24.0735 Y19.1575
G01 X24.1455 Y19.2235
G01 X24.2115 Y19.2955
G01 X24.2357 Y19.3251
G01 X24.2935 Y19.4038
G01 X24.3536 Y19.5040
G01 X24.4035 Y19.6096
G01 X24.4429 Y19.7195
G01 X24.4712 Y19.8328
G01 X24.4884 Y19.9483
G01 X24.4941 Y20.0650
G01 X24.4884 Y20.1817
G01 X24.4712 Y20.2972
G01 X24.4429 Y20.4105
G01 X24.4035 Y20.5204
G01 X24.3536 Y20.6260
G01 X24.2935 Y20.7262
G01 X24.2240 Y20.8200
G01 X24.1455 Y20.9065
G01 X24.0735 Y20.9725
G01 X24.0439 Y20.9967
G01 X23.9652 Y21.0545
G01 X23.8817 Y21.1051
G01 X23.8479 Y21.1232
G01 X23.7594 Y21.1645
G01 X23.6676 Y21.1979
G01 X23.6310 Y21.2090
G01 X23.5362 Y21.2322
G01 X23.4396 Y21.2470
G01 X23.4016 Y21.2508
G01 X23.3040 Y21.2551
G01 X22.4150 Y21.2551
G01 X22.2983 Y21.2494
G01 X22.1828 Y21.2322
G01 X22.0695 Y21.2039
G01 X21.9596 Y21.1645
G01 X21.8540 Y21.1146
G01 X21.7538 Y21.0545
G01 X21.6600 Y20.9850
G01 X21.5735 Y20.9065
G01 X21.5075 Y20.8345
G01 X21.4833 Y20.8049
G01 X21.4255 Y20.7262
G01 X21.3749 Y20.6427
G01 X21.3568 Y20.6089
G01 X21.3155 Y20.5204
G01 X21.2821 Y20.4286
G01 X21.2710 Y20.3920
G01 X21.2478 Y20.2972
G01 X21.2306 Y20.1817
G01 X21.2249 Y20.0650
G01 X21.2292 Y19.9674
G01 X21.2330 Y19.9294
G01 X21.2478 Y19.8328
G01 X21.2710 Y19.7380
G01 X21.2821 Y19.7014
G01 X21.3155 Y19.6096
G01 X21.3568 Y19.5211
G01 X21.3749 Y19.4873
G01 X21.4152 Y19.4200
G01 X21.4365 Y19.3882
G01 X21.4950 Y19.3100
G01 X21.5603 Y19.2373
G01 X21.5873 Y19.2103
G01 X21.6600 Y19.1450
G01 X21.7382 Y19.0865
G01 X21.7700 Y19.0652
G01 X21.8540 Y19.0154
G01 X21.9421 Y18.9732
G01 X21.9774 Y18.9586
G01 X22.0695 Y18.9261
G01 X22.1828 Y18.8978
G01 X22.2794 Y18.8830
G01 X22.3174 Y18.8792
G01 X22.4150 Y18.8749
G00 Z2.0000
G00 X22.4150 Y8.7149
G01 F300.00
G01 Z-0.1000
G01 F300.00
G01 X23.3136 Y8.7150
G01 X23.4207 Y8.7206
G01 X23.5173 Y8.7345
G01 X23.5549 Y8.7420
G01 X23.6495 Y8.7661
G01 X23.7594 Y8.8055
G01 X23.8650 Y8.8554
G01 X23.9490 Y8.9052
G01 X23.9808 Y8.9265
G01 X24.0439 Y8.9733
G01 X24.0735 Y8.9975
G01 X24.1455 Y9.0635
G01 X24.2115 Y9.1355
G01 X24.2357 Y9.1651
G01 X24.2935 Y9.2438
G01 X24.3536 Y9.3440
G01 X24.4035 Y9.4496
G01 X24.4429 Y9.5595
G01 X24.4712 Y9.6728
G01 X24.4884 Y9.7883
G01 X24.4941 Y9.9050
G01 X24.4884 Y10.0217
G01 X24.4712 Y10.1372
G01 X24.4429 Y10.2505
G01 X24.4035 Y10.3604
G01 X24.3536 Y10.4660
G01 X24.2935 Y10.5662
G01 X24.2240 Y10.6600
G01 X24.1455 Y10.7465
G01 X24.0735 Y10.8125
G01 X24.0439 Y10.8367
G01 X23.9652 Y10.8945
G01 X23.8817 Y10.9451
G01 X23.8479 Y10.9632
G01 X23.7594 Y11.0045
G01 X23.6676 Y11.0379
G01 X23.6310 Y11.0490
G01 X23.5362 Y11.0722
G01 X23.4396 Y11.0870
G01 X23.4016 Y11.0908
G01 X23.3040 Y11.0951
G01 X22.4150 Y11.0951
G01 X22.2983 Y11.0894
G01 X22.1828 Y11.0722
G01 X22.0695 Y11.0439
G01 X21.9596 Y11.0045
G01 X21.8540 Y10.9546
G01 X21.7538 Y10.8945
G01 X21.6600 Y10.8250
G01 X21.5735 Y10.7465
G01 X21.5075 Y10.6745
G01 X21.4833 Y10.6449
G01 X21.4255 Y10.5662
G01 X21.3749 Y10.4827
G01 X21.3568 Y10.4489
G01 X21.3155 Y10.3604
G01 X21.2761 Y10.2505
G01 X21.2520 Y10.1559
G01 X21.2445 Y10.1183
G01 X21.2306 Y10.0217
G01 X21.2249 Y9.9050
G01 X21.2292 Y9.8074
G01 X21.2330 Y9.7694
G01 X21.2478 Y9.6728
G01 X21.2710 Y9.5780
G01 X21.2821 Y9.5414
G01 X21.3155 Y9.4496
G01 X21.3568 Y9.3611
G01 X21.3749 Y9.3273
G01 X21.4255 Y9.2438
G01 X21.4833 Y9.1651
G01 X21.5075 Y9.1355
G01 X21.5735 Y9.0635
G01 X21.6455 Y8.9975
G01 X21.6751 Y8.9733
G01 X21.7382 Y8.9265
G01 X21.7700 Y8.9052
G01 X21.8540 Y8.8554
G01 X21.9421 Y8.8132
G01 X21.9774 Y8.7986
G01 X22.0695 Y8.7661
G01 X22.1828 Y8.7378
G01 X22.2794 Y8.7230
G01 X22.3174 Y8.7192
G01 X22.4150 Y8.7149
G00 Z2.0000
G00 X38.5440 Y13.6351
G01 F300.00
G01 Z-0.1000
G01 F300.00
G01 X37.6454 Y13.6350
G01 X37.5383 Y13.6294
G01 X37.4417 Y13.6155
G01 X37.4041 Y13.6080
G01 X37.3095 Y13.5839
G01 X37.1996 Y13.5445
G01 X37.0940 Y13.4946
G01 X37.0100 Y13.4448
G01 X36.9782 Y13.4235
G01 X36.9000 Y13.3650
G01 X36.8273 Y13.2997
G01 X36.8003 Y13.2727
G01 X36.7475 Y13.2145
G01 X36.7233 Y13.1849
G01 X36.6655 Y13.1062
G01 X36.6054 Y13.0060
G01 X36.5555 Y12.9004
G01 X36.5161 Y12.7905
G01 X36.4878 Y12.6772
G01 X36.4706 Y12.5617
G01 X36.4649 Y12.4450
G01 X36.4706 Y12.3283
G01 X36.4878 Y12.2128
G01 X36.5161 Y12.0995
G01 X36.5555 Y11.9896
G01 X36.6054 Y11.8840
G01 X36.6655 Y11.7838
G01 X36.7350 Y11.6900
G01 X36.8135 Y11.6035
G01 X36.8855 Y11.5375
G01 X36.9151 Y11.5133
G01 X36.9938 Y11.4555
G01 X37.0773 Y11.4049
G01 X37.1111 Y11.3868
G01 X37.1996 Y11.3455
G01 X37.2914 Y11.3121
G01 X37.3280 Y11.3010
G01 X37.4228 Y11.2778
G01 X37.5194 Y11.2630
G01 X37.5574 Y11.2592
G01 X37.6550 Y11.2549
G01 X38.5440 Y11.2549
G01 X38.6607 Y11.2606
G01 X38.7762 Y11.2778
G01 X38.8895 Y11.3061
G01 X38.9994 Y11.3455
G01 X39.1050 Y11.3954
G01 X39.2052 Y11.4555
G01 X39.2990 Y11.5250
G01 X39.3855 Y11.6035
G01 X39.4515 Y11.6755
G01 X39.4757 Y11.7051
G01 X39.5335 Y11.7838
G01 X39.5841 Y11.8673
G01 X39.6022 Y11.9011
G01 X39.6435 Y11.9896
G01 X39.6769 Y12.0814
G01 X39.6880 Y12.1180
G01 X39.7112 Y12.2128
G01 X39.7284 Y12.3283
G01 X39.7336 Y12.4259
G01 X39.7336 Y12.4641
G01 X39.7284 Y12.5617
G01 X39.7112 Y12.6772
G01 X39.6880 Y12.7720
G01 X39.6769 Y12.8086
G01 X39.6435 Y12.9004
G01 X39.6022 Y12.9889
G01 X39.5841 Y13.0227
G01 X39.5438 Y13.0900
G01 X39.5225 Y13.1218
G01 X39.4640 Y13.2000
G01 X39.3987 Y13.2727
G01 X39.3717 Y13.2997
G01 X39.2990 Y13.3650
G01 X39.2208 Y13.4235
G01 X39.1890 Y13.4448
G01 X39.1050 Y13.4946
G01 X39.0169 Y13.5368
G01 X38.9816 Y13.5514
G01 X38.8895 Y13.5839
G01 X38.7949 Y13.6080
G01 X38.7573 Y13.6155
G01 X38.6607 Y13.6294
G01 X38.5440 Y13.6351
G00 Z2.0000
G00 X38.5440 Y16.1751
G01 F300.00
G01 Z-0.1000
G01 F300.00
G01 X37.6454 Y16.1750
G01 X37.5383 Y16.1694
G01 X37.4417 Y16.1555
G01 X37.4041 Y16.1480
G01 X37.3095 Y16.1239
G01 X37.1996 Y16.0845
G01 X37.0940 Y16.0346
G01 X37.0100 Y15.9848
G01 X36.9782 Y15.9635
G01 X36.9000 Y15.9050
G01 X36.8273 Y15.8397
G01 X36.8003 Y15.8127
G01 X36.7475 Y15.7545
G01 X36.7233 Y15.7249
G01 X36.6655 Y15.6462
G01 X36.6054 Y15.5460
G01 X36.5555 Y15.4404
G01 X36.5161 Y15.3305
G01 X36.4878 Y15.2172
G01 X36.4706 Y15.1017
G01 X36.4649 Y14.9850
G01 X36.4706 Y14.8683
G01 X36.4878 Y14.7528
G01 X36.5161 Y14.6395
G01 X36.5555 Y14.5296
G01 X36.6054 Y14.4240
G01 X36.6655 Y14.3238
G01 X36.7350 Y14.2300
G01 X36.8135 Y14.1435
G01 X36.8855 Y14.0775
G01 X36.9151 Y14.0533
G01 X36.9938 Y13.9955
G01 X37.0773 Y13.9449
G01 X37.1111 Y13.9268
G01 X37.1996 Y13.8855
G01 X37.2914 Y13.8521
G01 X37.3280 Y13.8410
G01 X37.4228 Y13.8178
G01 X37.5194 Y13.8030
G01 X37.5574 Y13.7992
G01 X37.6550 Y13.7949
G01 X38.5440 Y13.7949
G01 X38.6607 Y13.8006
G01 X38.7762 Y13.8178
G01 X38.8895 Y13.8461
G01 X38.9994 Y13.8855
G01 X39.1050 Y13.9354
G01 X39.2052 Y13.9955
G01 X39.2990 Y14.0650
G01 X39.3855 Y14.1435
G01 X39.4515 Y14.2155
G01 X39.4757 Y14.2451
G01 X39.5335 Y14.3238
G01 X39.5841 Y14.4073
G01 X39.6022 Y14.4411
G01 X39.6435 Y14.5296
G01 X39.6769 Y14.6214
G01 X39.6880 Y14.6580
G01 X39.7112 Y14.7528
G01 X39.7284 Y14.8683
G01 X39.7336 Y14.9659
G01 X39.7336 Y15.0041
G01 X39.7284 Y15.1017
G01 X39.7112 Y15.2172
G01 X39.6880 Y15.3120
G01 X39.6769 Y15.3486
G01 X39.6435 Y15.4404
G01 X39.6022 Y15.5289
G01 X39.5841 Y15.5627
G01 X39.5438 Y15.6300
G01 X39.5225 Y15.6618
G01 X39.4640 Y15.7400
G01 X39.3987 Y15.8127
G01 X39.3717 Y15.8397
G01 X39.2990 Y15.9050
G01 X39.2208 Y15.9635
G01 X39.1890 Y15.9848
G01 X39.1050 Y16.0346
G01 X39.0169 Y16.0768
G01 X38.9816 Y16.0914
G01 X38.8895 Y16.1239
G01 X38.7949 Y16.1480
G01 X38.7573 Y16.1555
G01 X38.6607 Y16.1694
G01 X38.5440 Y16.1751
G00 Z2.0000
G00 X38.5440 Y18.7151
G01 F300.00
G01 Z-0.1000
G01 F300.00
G01 X37.6454 Y18.7150
G01 X37.5383 Y18.7094
G01 X37.4417 Y18.6955
G01 X37.4041 Y18.6880
G01 X37.3095 Y18.6639
G01 X37.1996 Y18.6245
G01 X37.0940 Y18.5746
G01 X37.0100 Y18.5248
G01 X36.9782 Y18.5035
G01 X36.9000 Y18.4450
G01 X36.8273 Y18.3797
G01 X36.8003 Y18.3527
G01 X36.7475 Y18.2945
G01 X36.7233 Y18.2649
G01 X36.6655 Y18.1862
G01 X36.6054 Y18.0860
G01 X36.5555 Y17.9804
G01 X36.5161 Y17.8705
G01 X36.4878 Y17.7572
G01 X36.4706 Y17.6417
G01 X36.4649 Y17.5250
G01 X36.4706 Y17.4083
G01 X36.4878 Y17.2928
G01 X36.5161 Y17.1795
G01 X36.5555 Y17.0696
G01 X36.6054 Y16.9640
G01 X36.6655 Y16.8638
G01 X36.7350 Y16.7700
G01 X36.8135 Y16.6835
G01 X36.8855 Y16.6175
G01 X36.9151 Y16.5933
G01 X36.9938 Y16.5355
G01 X37.0773 Y16.4849
G01 X37.1111 Y16.4668
G01 X37.1996 Y16.4255
G01 X37.2914 Y16.3921
G01 X37.3280 Y16.3810
G01 X37.4228 Y16.3578
G01 X37.5194 Y16.3430
G01 X37.5574 Y16.3392
G01 X37.6550 Y16.3349
G01 X38.5440 Y16.3349
G01 X38.6607 Y16.3406
G01 X38.7762 Y16.3578
G01 X38.8895 Y16.3861
G01 X38.9994 Y16.4255
G01 X39.1050 Y16.4754
G01 X39.2052 Y16.5355
G01 X39.2990 Y16.6050
G01 X39.3855 Y16.6835
G01 X39.4515 Y16.7555
G01 X39.4757 Y16.7851
G01 X39.5335 Y16.8638
G01 X39.5841 Y16.9473
G01 X39.6022 Y16.9811
G01 X39.6435 Y17.0696
G01 X39.6769 Y17.1614
G01 X39.6880 Y17.1980
G01 X39.7112 Y17.2928
G01 X39.7284 Y17.4083
G01 X39.7336 Y17.5059
G01 X39.7336 Y17.5441
G01 X39.7284 Y17.6417
G01 X39.7112 Y17.7572
G01 X39.6880 Y17.8520
G01 X39.6769 Y17.8886
G01 X39.6435 Y17.9804
G01 X39.6022 Y18.0689
G01 X39.5841 Y18.1027
G01 X39.5438 Y18.1700
G01 X39.5225 Y18.2018
G01 X39.4640 Y18.2800
G01 X39.3987 Y18.3527
G01 X39.3717 Y18.3797
G01 X39.2990 Y18.4450
G01 X39.2208 Y18.5035
G01 X39.1890 Y18.5248
G01 X39.1050 Y18.5746
G01 X39.0169 Y18.6168
G01 X38.9816 Y18.6314
G01 X38.8895 Y18.6639
G01 X38.7762 Y18.6922
G01 X38.6796 Y18.7070
G01 X38.6416 Y18.7108
G01 X38.5440 Y18.7151
G00 Z2.0000
G00 X38.5440 Y21.2551
G01 F300.00
G01 Z-0.1000
G01 F300.00
G01 X37.6454 Y21.2550
G01 X37.5383 Y21.2494
G01 X37.4417 Y21.2355
G01 X37.4041 Y21.2280
G01 X37.3095 Y21.2039
G01 X37.1996 Y21.1645
G01 X37.0940 Y21.1146
G01 X37.0100 Y21.0648
G01 X36.9782 Y21.0435
G01 X36.9000 Y20.9850
G01 X36.8273 Y20.9197
G01 X36.8003 Y20.8927
G01 X36.7475 Y20.8345
G01 X36.7233 Y20.8049
G01 X36.6655 Y20.7262
G01 X36.6054 Y20.6260
G01 X36.5555 Y20.5204
G01 X36.5161 Y20.4105
G01 X36.4878 Y20.2972
G01 X36.4706 Y20.1817
G01 X36.4649 Y20.0650
G01 X36.4706 Y19.9483
G01 X36.4878 Y19.8328
G01 X36.5161 Y19.7195
G01 X36.5555 Y19.6096
G01 X36.6054 Y19.5040
G01 X36.6655 Y19.4038
G01 X36.7350 Y19.3100
G01 X36.8135 Y19.2235
G01 X36.8855 Y19.1575
G01 X36.9151 Y19.1333
G01 X36.9938 Y19.0755
G01 X37.0773 Y19.0249
G01 X37.1111 Y19.0068
G01 X37.1996 Y18.9655
G01 X37.2914 Y18.9321
G01 X37.3280 Y18.9210
G01 X37.4228 Y18.8978
G01 X37.5194 Y18.8830
G01 X37.5574 Y18.8792
G01 X37.6550 Y18.8749
G01 X38.5440 Y18.8749
G01 X38.6607 Y18.8806
G01 X38.7762 Y18.8978
G01 X38.8895 Y18.9261
G01 X38.9994 Y18.9655
G01 X39.1050 Y19.0154
G01 X39.2052 Y19.0755
G01 X39.2990 Y19.1450
